(G-CODE GENERATED BY FLATCAM v8.994 - www.flatcam.org - Version Date: 2020/11/7)

(Name: Drill_PTH_Through.DRL_cnc)
(Type: G-code from Geometry)
(Units: MM)

(Created on Saturday, 13 August 2022 at 19:59)

(This preprocessor is the default preprocessor used by FlatCAM.)
(It is made to work with MACH3 compatible motion controllers.)


(TOOLS DIAMETER: )
(Tool: 1 -> Dia: 0.901)
(Tool: 2 -> Dia: 1.0)

(FEEDRATE Z: )
(Tool: 1 -> Feedrate: 300)
(Tool: 2 -> Feedrate: 300)

(FEEDRATE RAPIDS: )
(Tool: 1 -> Feedrate Rapids: 1500)
(Tool: 2 -> Feedrate Rapids: 1500)

(Z_CUT: )
(Tool: 1 -> Z_Cut: -2.0)
(Tool: 2 -> Z_Cut: -2.0)

(Tools Offset: )
(Tool: 1 -> Offset Z: 0.0)
(Tool: 2 -> Offset Z: 0.0)

(Z_MOVE: )
(Tool: 1 -> Z_Move: 2)
(Tool: 2 -> Z_Move: 2)

(Z Toolchange: 15 mm)
(X,Y Toolchange: 0.0000, 0.0000 mm)
(Z Start: None mm)
(Z End: 0.5 mm)
(X,Y End: None mm)
(Steps per circle: 64)
(Preprocessor Excellon: default)

(X range:    0.3000 ...   65.2020  mm)
(Y range:    0.3000 ...   36.7610  mm)

(Spindle Speed: 0 RPM)
G21
G90
G94

G01 F300.00

M5
G00 Z15.0000
T1
G00 X0.0000 Y0.0000                
M6
(MSG, Change to Tool Dia = 0.9010 ||| Total drills for tool T1 = 45)
M0
G00 Z15.0000

G01 F300.00
M03
G00 X21.9560 Y0.7505
G01 Z-2.0000
G01 Z0
G00 Z2.0000
G00 X21.9560 Y3.2905
G01 Z-2.0000
G01 Z0
G00 Z2.0000
G00 X21.9560 Y5.8305
G01 Z-2.0000
G01 Z0
G00 Z2.0000
G00 X21.9560 Y8.3705
G01 Z-2.0000
G01 Z0
G00 Z2.0000
G00 X21.9560 Y10.9095
G01 Z-2.0000
G01 Z0
G00 Z2.0000
G00 X21.9560 Y13.4505
G01 Z-2.0000
G01 Z0
G00 Z2.0000
G00 X21.9560 Y15.9895
G01 Z-2.0000
G01 Z0
G00 Z2.0000
G00 X21.9560 Y18.5305
G01 Z-2.0000
G01 Z0
G00 Z2.0000
G00 X21.9560 Y21.0695
G01 Z-2.0000
G01 Z0
G00 Z2.0000
G00 X21.9560 Y23.6105
G01 Z-2.0000
G01 Z0
G00 Z2.0000
G00 X21.9560 Y26.1495
G01 Z-2.0000
G01 Z0
G00 Z2.0000
G00 X37.1960 Y26.1505
G01 Z-2.0000
G01 Z0
G00 Z2.0000
G00 X37.1960 Y23.6115
G01 Z-2.0000
G01 Z0
G00 Z2.0000
G00 X37.1960 Y21.0705
G01 Z-2.0000
G01 Z0
G00 Z2.0000
G00 X37.1960 Y18.5315
G01 Z-2.0000
G01 Z0
G00 Z2.0000
G00 X37.1960 Y15.9905
G01 Z-2.0000
G01 Z0
G00 Z2.0000
G00 X37.1960 Y13.4515
G01 Z-2.0000
G01 Z0
G00 Z2.0000
G00 X37.1960 Y10.9105
G01 Z-2.0000
G01 Z0
G00 Z2.0000
G00 X37.1960 Y8.3715
G01 Z-2.0000
G01 Z0
G00 Z2.0000
G00 X37.1960 Y5.8305
G01 Z-2.0000
G01 Z0
G00 Z2.0000
G00 X37.1960 Y3.2905
G01 Z-2.0000
G01 Z0
G00 Z2.0000
G00 X37.1960 Y0.7505
G01 Z-2.0000
G01 Z0
G00 Z2.0000
G00 X49.9700 Y4.9415
G01 Z-2.0000
G01 Z0
G00 Z2.0000
G00 X49.9700 Y7.4815
G01 Z-2.0000
G01 Z0
G00 Z2.0000
G00 X64.7020 Y4.3065
G01 Z-2.0000
G01 Z0
G00 Z2.0000
G00 X64.7020 Y6.8465
G01 Z-2.0000
G01 Z0
G00 Z2.0000
G00 X64.5750 Y29.7065
G01 Z-2.0000
G01 Z0
G00 Z2.0000
G00 X64.5750 Y32.2465
G01 Z-2.0000
G01 Z0
G00 Z2.0000
G00 X64.5750 Y34.7865
G01 Z-2.0000
G01 Z0
G00 Z2.0000
G00 X49.9700 Y34.7865
G01 Z-2.0000
G01 Z0
G00 Z2.0000
G00 X49.9700 Y32.2465
G01 Z-2.0000
G01 Z0
G00 Z2.0000
G00 X49.9700 Y29.7065
G01 Z-2.0000
G01 Z0
G00 Z2.0000
G00 X37.1960 Y28.6915
G01 Z-2.0000
G01 Z0
G00 Z2.0000
G00 X37.1960 Y31.2305
G01 Z-2.0000
G01 Z0
G00 Z2.0000
G00 X37.1960 Y33.7715
G01 Z-2.0000
G01 Z0
G00 Z2.0000
G00 X37.1960 Y36.3105
G01 Z-2.0000
G01 Z0
G00 Z2.0000
G00 X21.9560 Y36.3105
G01 Z-2.0000
G01 Z0
G00 Z2.0000
G00 X21.9560 Y33.7705
G01 Z-2.0000
G01 Z0
G00 Z2.0000
G00 X21.9560 Y31.2295
G01 Z-2.0000
G01 Z0
G00 Z2.0000
G00 X21.9560 Y28.6905
G01 Z-2.0000
G01 Z0
G00 Z2.0000
G00 X1.0540 Y33.8975
G01 Z-2.0000
G01 Z0
G00 Z2.0000
G00 X1.0540 Y31.3575
G01 Z-2.0000
G01 Z0
G00 Z2.0000
G00 X1.0540 Y28.8175
G01 Z-2.0000
G01 Z0
G00 Z2.0000
G00 X0.8000 Y13.4505
G01 Z-2.0000
G01 Z0
G00 Z2.0000
G00 X0.8000 Y10.9105
G01 Z-2.0000
G01 Z0
G00 Z2.0000
M05
G00 Z0.50


