(G-CODE GENERATED BY FLATCAM v8.994 - www.flatcam.org - Version Date: 2020/11/7)

(Name: Gerber_BoardOutlineLayer.GKO_cutout_cnc)
(Type: G-code from Geometry)
(Units: MM)

(Created on Saturday, 13 August 2022 at 20:03)

(This preprocessor is the default preprocessor used by FlatCAM.)
(It is made to work with MACH3 compatible motion controllers.)

(TOOL DIAMETER: 1.5 mm)
(Feedrate_XY: 120.0 mm/min)
(Feedrate_Z: 60.0 mm/min)
(Feedrate rapids 1500.0 mm/min)

(Z_Cut: -2.0 mm)
(DepthPerCut: 0.6 mm <=>4 passes)
(Z_Move: 2.0 mm)
(Z Start: None mm)
(Z End: 15.0 mm)
(X,Y End: None mm)
(Steps per circle: 64)
(Preprocessor Geometry: default)

(X range:   -8.2147 ...   77.7899  mm)
(Y range:   -9.5923 ...   49.5030  mm)

(Spindle Speed: 0.0 RPM)
G21
G90
G94

G01 F120.00

M5
G00 Z15.0000
G00 X0.0000 Y0.0000
T1
M6    
(MSG, Change to Tool Dia = 1.5000)
M0
G00 Z15.0000

M03
G01 F120.00
G00 X-8.2147 Y17.3054
G01 F60.00
G01 Z-0.6000
G01 F120.00
G01 X-8.2147 Y-8.6162
G01 X-8.2131 Y-8.6703
G01 X-8.2049 Y-8.7533
G01 X-8.2031 Y-8.7655
G01 X-8.1868 Y-8.8473
G01 X-8.1838 Y-8.8593
G01 X-8.1596 Y-8.9392
G01 X-8.1554 Y-8.9508
G01 X-8.1235 Y-9.0279
G01 X-8.1182 Y-9.0391
G01 X-8.0789 Y-9.1126
G01 X-8.0725 Y-9.1232
G01 X-8.0262 Y-9.1926
G01 X-8.0188 Y-9.2025
G01 X-7.9659 Y-9.2670
G01 X-7.9576 Y-9.2762
G01 X-7.8986 Y-9.3352
G01 X-7.8894 Y-9.3435
G01 X-7.8250 Y-9.3964
G01 X-7.8150 Y-9.4038
G01 X-7.7457 Y-9.4501
G01 X-7.7351 Y-9.4565
G01 X-7.6615 Y-9.4958
G01 X-7.6503 Y-9.5011
G01 X-7.5732 Y-9.5330
G01 X-7.5616 Y-9.5372
G01 X-7.4818 Y-9.5614
G01 X-7.4698 Y-9.5644
G01 X-7.3880 Y-9.5807
G01 X-7.3757 Y-9.5825
G01 X-7.2927 Y-9.5906
G01 X-7.2386 Y-9.5923
G01 X32.1376 Y-9.5923
G00 X32.1376 Y-9.5923
G01 F60.00
G01 Z-1.2000
G01 F120.00
G01 X-7.2386 Y-9.5923
G01 X-7.2927 Y-9.5906
G01 X-7.3757 Y-9.5825
G01 X-7.3880 Y-9.5807
G01 X-7.4698 Y-9.5644
G01 X-7.4818 Y-9.5614
G01 X-7.5616 Y-9.5372
G01 X-7.5732 Y-9.5330
G01 X-7.6503 Y-9.5011
G01 X-7.6615 Y-9.4958
G01 X-7.7351 Y-9.4565
G01 X-7.7457 Y-9.4501
G01 X-7.8150 Y-9.4038
G01 X-7.8250 Y-9.3964
G01 X-7.8894 Y-9.3435
G01 X-7.8986 Y-9.3352
G01 X-7.9576 Y-9.2762
G01 X-7.9659 Y-9.2670
G01 X-8.0188 Y-9.2025
G01 X-8.0262 Y-9.1926
G01 X-8.0725 Y-9.1232
G01 X-8.0789 Y-9.1126
G01 X-8.1182 Y-9.0391
G01 X-8.1235 Y-9.0279
G01 X-8.1554 Y-8.9508
G01 X-8.1596 Y-8.9392
G01 X-8.1838 Y-8.8593
G01 X-8.1868 Y-8.8473
G01 X-8.2031 Y-8.7655
G01 X-8.2049 Y-8.7533
G01 X-8.2131 Y-8.6703
G01 X-8.2147 Y-8.6162
G01 X-8.2147 Y17.3054
G00 X-8.2147 Y17.3054
G01 F60.00
G01 Z-1.8000
G01 F120.00
G01 X-8.2147 Y-8.6162
G01 X-8.2131 Y-8.6703
G01 X-8.2049 Y-8.7533
G01 X-8.2031 Y-8.7655
G01 X-8.1868 Y-8.8473
G01 X-8.1838 Y-8.8593
G01 X-8.1596 Y-8.9392
G01 X-8.1554 Y-8.9508
G01 X-8.1235 Y-9.0279
G01 X-8.1182 Y-9.0391
G01 X-8.0789 Y-9.1126
G01 X-8.0725 Y-9.1232
G01 X-8.0262 Y-9.1926
G01 X-8.0188 Y-9.2025
G01 X-7.9659 Y-9.2670
G01 X-7.9576 Y-9.2762
G01 X-7.8986 Y-9.3352
G01 X-7.8894 Y-9.3435
G01 X-7.8250 Y-9.3964
G01 X-7.8150 Y-9.4038
G01 X-7.7457 Y-9.4501
G01 X-7.7351 Y-9.4565
G01 X-7.6615 Y-9.4958
G01 X-7.6503 Y-9.5011
G01 X-7.5732 Y-9.5330
G01 X-7.5616 Y-9.5372
G01 X-7.4818 Y-9.5614
G01 X-7.4698 Y-9.5644
G01 X-7.3880 Y-9.5807
G01 X-7.3757 Y-9.5825
G01 X-7.2927 Y-9.5906
G01 X-7.2386 Y-9.5923
G01 X32.1376 Y-9.5923
G00 X32.1376 Y-9.5923
G01 F60.00
G01 Z-2.0000
G01 F120.00
G01 X-7.2386 Y-9.5923
G01 X-7.2927 Y-9.5906
G01 X-7.3757 Y-9.5825
G01 X-7.3880 Y-9.5807
G01 X-7.4698 Y-9.5644
G01 X-7.4818 Y-9.5614
G01 X-7.5616 Y-9.5372
G01 X-7.5732 Y-9.5330
G01 X-7.6503 Y-9.5011
G01 X-7.6615 Y-9.4958
G01 X-7.7351 Y-9.4565
G01 X-7.7457 Y-9.4501
G01 X-7.8150 Y-9.4038
G01 X-7.8250 Y-9.3964
G01 X-7.8894 Y-9.3435
G01 X-7.8986 Y-9.3352
G01 X-7.9576 Y-9.2762
G01 X-7.9659 Y-9.2670
G01 X-8.0188 Y-9.2025
G01 X-8.0262 Y-9.1926
G01 X-8.0725 Y-9.1232
G01 X-8.0789 Y-9.1126
G01 X-8.1182 Y-9.0391
G01 X-8.1235 Y-9.0279
G01 X-8.1554 Y-8.9508
G01 X-8.1596 Y-8.9392
G01 X-8.1838 Y-8.8593
G01 X-8.1868 Y-8.8473
G01 X-8.2031 Y-8.7655
G01 X-8.2049 Y-8.7533
G01 X-8.2131 Y-8.6703
G01 X-8.2147 Y-8.6162
G01 X-8.2147 Y17.3054
G00 Z2.0000
G00 X-8.2147 Y22.8054
G01 F60.00
G01 Z-0.6000
G01 F120.00
G01 X-8.2147 Y48.5269
G01 X-8.2131 Y48.5810
G01 X-8.2049 Y48.6640
G01 X-8.2031 Y48.6762
G01 X-8.1868 Y48.7580
G01 X-8.1838 Y48.7700
G01 X-8.1596 Y48.8499
G01 X-8.1554 Y48.8615
G01 X-8.1235 Y48.9386
G01 X-8.1182 Y48.9498
G01 X-8.0789 Y49.0233
G01 X-8.0725 Y49.0339
G01 X-8.0262 Y49.1033
G01 X-8.0188 Y49.1132
G01 X-7.9659 Y49.1777
G01 X-7.9576 Y49.1869
G01 X-7.8986 Y49.2459
G01 X-7.8894 Y49.2542
G01 X-7.8250 Y49.3071
G01 X-7.8150 Y49.3145
G01 X-7.7457 Y49.3608
G01 X-7.7351 Y49.3672
G01 X-7.6615 Y49.4065
G01 X-7.6503 Y49.4118
G01 X-7.5732 Y49.4437
G01 X-7.5616 Y49.4479
G01 X-7.4818 Y49.4721
G01 X-7.4698 Y49.4751
G01 X-7.3880 Y49.4914
G01 X-7.3757 Y49.4932
G01 X-7.2927 Y49.5014
G01 X-7.2386 Y49.5030
G01 X32.1376 Y49.5030
G00 X32.1376 Y49.5030
G01 F60.00
G01 Z-1.2000
G01 F120.00
G01 X-7.2386 Y49.5030
G01 X-7.2927 Y49.5014
G01 X-7.3757 Y49.4932
G01 X-7.3880 Y49.4914
G01 X-7.4698 Y49.4751
G01 X-7.4818 Y49.4721
G01 X-7.5616 Y49.4479
G01 X-7.5732 Y49.4437
G01 X-7.6503 Y49.4118
G01 X-7.6615 Y49.4065
G01 X-7.7351 Y49.3672
G01 X-7.7457 Y49.3608
G01 X-7.8150 Y49.3145
G01 X-7.8250 Y49.3071
G01 X-7.8894 Y49.2542
G01 X-7.8986 Y49.2459
G01 X-7.9576 Y49.1869
G01 X-7.9659 Y49.1777
G01 X-8.0188 Y49.1132
G01 X-8.0262 Y49.1033
G01 X-8.0725 Y49.0339
G01 X-8.0789 Y49.0233
G01 X-8.1182 Y48.9498
G01 X-8.1235 Y48.9386
G01 X-8.1554 Y48.8615
G01 X-8.1596 Y48.8499
G01 X-8.1838 Y48.7700
G01 X-8.1868 Y48.7580
G01 X-8.2031 Y48.6762
G01 X-8.2049 Y48.6640
G01 X-8.2131 Y48.5810
G01 X-8.2147 Y48.5269
G01 X-8.2147 Y22.8054
G00 X-8.2147 Y22.8054
G01 F60.00
G01 Z-1.8000
G01 F120.00
G01 X-8.2147 Y48.5269
G01 X-8.2131 Y48.5810
G01 X-8.2049 Y48.6640
G01 X-8.2031 Y48.6762
G01 X-8.1868 Y48.7580
G01 X-8.1838 Y48.7700
G01 X-8.1596 Y48.8499
G01 X-8.1554 Y48.8615
G01 X-8.1235 Y48.9386
G01 X-8.1182 Y48.9498
G01 X-8.0789 Y49.0233
G01 X-8.0725 Y49.0339
G01 X-8.0262 Y49.1033
G01 X-8.0188 Y49.1132
G01 X-7.9659 Y49.1777
G01 X-7.9576 Y49.1869
G01 X-7.8986 Y49.2459
G01 X-7.8894 Y49.2542
G01 X-7.8250 Y49.3071
G01 X-7.8150 Y49.3145
G01 X-7.7457 Y49.3608
G01 X-7.7351 Y49.3672
G01 X-7.6615 Y49.4065
G01 X-7.6503 Y49.4118
G01 X-7.5732 Y49.4437
G01 X-7.5616 Y49.4479
G01 X-7.4818 Y49.4721
G01 X-7.4698 Y49.4751
G01 X-7.3880 Y49.4914
G01 X-7.3757 Y49.4932
G01 X-7.2927 Y49.5014
G01 X-7.2386 Y49.5030
G01 X32.1376 Y49.5030
G00 X32.1376 Y49.5030
G01 F60.00
G01 Z-2.0000
G01 F120.00
G01 X-7.2386 Y49.5030
G01 X-7.2927 Y49.5014
G01 X-7.3757 Y49.4932
G01 X-7.3880 Y49.4914
G01 X-7.4698 Y49.4751
G01 X-7.4818 Y49.4721
G01 X-7.5616 Y49.4479
G01 X-7.5732 Y49.4437
G01 X-7.6503 Y49.4118
G01 X-7.6615 Y49.4065
G01 X-7.7351 Y49.3672
G01 X-7.7457 Y49.3608
G01 X-7.8150 Y49.3145
G01 X-7.8250 Y49.3071
G01 X-7.8894 Y49.2542
G01 X-7.8986 Y49.2459
G01 X-7.9576 Y49.1869
G01 X-7.9659 Y49.1777
G01 X-8.0188 Y49.1132
G01 X-8.0262 Y49.1033
G01 X-8.0725 Y49.0339
G01 X-8.0789 Y49.0233
G01 X-8.1182 Y48.9498
G01 X-8.1235 Y48.9386
G01 X-8.1554 Y48.8615
G01 X-8.1596 Y48.8499
G01 X-8.1838 Y48.7700
G01 X-8.1868 Y48.7580
G01 X-8.2031 Y48.6762
G01 X-8.2049 Y48.6640
G01 X-8.2131 Y48.5810
G01 X-8.2147 Y48.5269
G01 X-8.2147 Y22.8054
G00 Z2.0000
G00 X37.6376 Y49.5030
G01 F60.00
G01 Z-0.6000
G01 F120.00
G01 X76.8139 Y49.5030
G01 X76.8679 Y49.5014
G01 X76.9509 Y49.4932
G01 X76.9632 Y49.4914
G01 X77.0450 Y49.4751
G01 X77.0570 Y49.4721
G01 X77.1368 Y49.4479
G01 X77.1485 Y49.4437
G01 X77.2255 Y49.4118
G01 X77.2367 Y49.4065
G01 X77.3103 Y49.3672
G01 X77.3209 Y49.3608
G01 X77.3903 Y49.3145
G01 X77.4002 Y49.3071
G01 X77.4647 Y49.2542
G01 X77.4738 Y49.2459
G01 X77.5328 Y49.1869
G01 X77.5411 Y49.1777
G01 X77.5941 Y49.1132
G01 X77.6014 Y49.1033
G01 X77.6478 Y49.0339
G01 X77.6541 Y49.0233
G01 X77.6934 Y48.9498
G01 X77.6987 Y48.9386
G01 X77.7307 Y48.8615
G01 X77.7348 Y48.8499
G01 X77.7590 Y48.7700
G01 X77.7621 Y48.7580
G01 X77.7783 Y48.6762
G01 X77.7801 Y48.6640
G01 X77.7883 Y48.5810
G01 X77.7899 Y48.5269
G01 X77.7899 Y22.8054
G00 X77.7899 Y22.8054
G01 F60.00
G01 Z-1.2000
G01 F120.00
G01 X77.7899 Y48.5269
G01 X77.7883 Y48.5810
G01 X77.7801 Y48.6640
G01 X77.7783 Y48.6762
G01 X77.7621 Y48.7580
G01 X77.7590 Y48.7700
G01 X77.7348 Y48.8499
G01 X77.7307 Y48.8615
G01 X77.6987 Y48.9386
G01 X77.6934 Y48.9498
G01 X77.6541 Y49.0233
G01 X77.6478 Y49.0339
G01 X77.6014 Y49.1033
G01 X77.5941 Y49.1132
G01 X77.5411 Y49.1777
G01 X77.5328 Y49.1869
G01 X77.4738 Y49.2459
G01 X77.4647 Y49.2542
G01 X77.4002 Y49.3071
G01 X77.3903 Y49.3145
G01 X77.3209 Y49.3608
G01 X77.3103 Y49.3672
G01 X77.2367 Y49.4065
G01 X77.2255 Y49.4118
G01 X77.1485 Y49.4437
G01 X77.1368 Y49.4479
G01 X77.0570 Y49.4721
G01 X77.0450 Y49.4751
G01 X76.9632 Y49.4914
G01 X76.9509 Y49.4932
G01 X76.8679 Y49.5014
G01 X76.8139 Y49.5030
G01 X37.6376 Y49.5030
G00 X37.6376 Y49.5030
G01 F60.00
G01 Z-1.8000
G01 F120.00
G01 X76.8139 Y49.5030
G01 X76.8679 Y49.5014
G01 X76.9509 Y49.4932
G01 X76.9632 Y49.4914
G01 X77.0450 Y49.4751
G01 X77.0570 Y49.4721
G01 X77.1368 Y49.4479
G01 X77.1485 Y49.4437
G01 X77.2255 Y49.4118
G01 X77.2367 Y49.4065
G01 X77.3103 Y49.3672
G01 X77.3209 Y49.3608
G01 X77.3903 Y49.3145
G01 X77.4002 Y49.3071
G01 X77.4647 Y49.2542
G01 X77.4738 Y49.2459
G01 X77.5328 Y49.1869
G01 X77.5411 Y49.1777
G01 X77.5941 Y49.1132
G01 X77.6014 Y49.1033
G01 X77.6478 Y49.0339
G01 X77.6541 Y49.0233
G01 X77.6934 Y48.9498
G01 X77.6987 Y48.9386
G01 X77.7307 Y48.8615
G01 X77.7348 Y48.8499
G01 X77.7590 Y48.7700
G01 X77.7621 Y48.7580
G01 X77.7783 Y48.6762
G01 X77.7801 Y48.6640
G01 X77.7883 Y48.5810
G01 X77.7899 Y48.5269
G01 X77.7899 Y22.8054
G00 X77.7899 Y22.8054
G01 F60.00
G01 Z-2.0000
G01 F120.00
G01 X77.7899 Y48.5269
G01 X77.7883 Y48.5810
G01 X77.7801 Y48.6640
G01 X77.7783 Y48.6762
G01 X77.7621 Y48.7580
G01 X77.7590 Y48.7700
G01 X77.7348 Y48.8499
G01 X77.7307 Y48.8615
G01 X77.6987 Y48.9386
G01 X77.6934 Y48.9498
G01 X77.6541 Y49.0233
G01 X77.6478 Y49.0339
G01 X77.6014 Y49.1033
G01 X77.5941 Y49.1132
G01 X77.5411 Y49.1777
G01 X77.5328 Y49.1869
G01 X77.4738 Y49.2459
G01 X77.4647 Y49.2542
G01 X77.4002 Y49.3071
G01 X77.3903 Y49.3145
G01 X77.3209 Y49.3608
G01 X77.3103 Y49.3672
G01 X77.2367 Y49.4065
G01 X77.2255 Y49.4118
G01 X77.1485 Y49.4437
G01 X77.1368 Y49.4479
G01 X77.0570 Y49.4721
G01 X77.0450 Y49.4751
G01 X76.9632 Y49.4914
G01 X76.9509 Y49.4932
G01 X76.8679 Y49.5014
G01 X76.8139 Y49.5030
G01 X37.6376 Y49.5030
G00 Z2.0000
G00 X77.7899 Y17.3054
G01 F60.00
G01 Z-0.6000
G01 F120.00
G01 X77.7899 Y-8.6162
G01 X77.7883 Y-8.6703
G01 X77.7801 Y-8.7533
G01 X77.7783 Y-8.7655
G01 X77.7621 Y-8.8473
G01 X77.7590 Y-8.8593
G01 X77.7348 Y-8.9392
G01 X77.7307 Y-8.9508
G01 X77.6987 Y-9.0279
G01 X77.6934 Y-9.0391
G01 X77.6541 Y-9.1126
G01 X77.6478 Y-9.1232
G01 X77.6014 Y-9.1926
G01 X77.5941 Y-9.2025
G01 X77.5411 Y-9.2670
G01 X77.5328 Y-9.2762
G01 X77.4738 Y-9.3352
G01 X77.4647 Y-9.3435
G01 X77.4002 Y-9.3964
G01 X77.3903 Y-9.4038
G01 X77.3209 Y-9.4501
G01 X77.3103 Y-9.4565
G01 X77.2367 Y-9.4958
G01 X77.2255 Y-9.5011
G01 X77.1485 Y-9.5330
G01 X77.1368 Y-9.5372
G01 X77.0570 Y-9.5614
G01 X77.0450 Y-9.5644
G01 X76.9632 Y-9.5807
G01 X76.9509 Y-9.5825
G01 X76.8679 Y-9.5906
G01 X76.8139 Y-9.5923
G01 X37.6376 Y-9.5923
G00 X37.6376 Y-9.5923
G01 F60.00
G01 Z-1.2000
G01 F120.00
G01 X76.8139 Y-9.5923
G01 X76.8679 Y-9.5906
G01 X76.9509 Y-9.5825
G01 X76.9632 Y-9.5807
G01 X77.0450 Y-9.5644
G01 X77.0570 Y-9.5614
G01 X77.1368 Y-9.5372
G01 X77.1485 Y-9.5330
G01 X77.2255 Y-9.5011
G01 X77.2367 Y-9.4958
G01 X77.3103 Y-9.4565
G01 X77.3209 Y-9.4501
G01 X77.3903 Y-9.4038
G01 X77.4002 Y-9.3964
G01 X77.4647 Y-9.3435
G01 X77.4738 Y-9.3352
G01 X77.5328 Y-9.2762
G01 X77.5411 Y-9.2670
G01 X77.5941 Y-9.2025
G01 X77.6014 Y-9.1926
G01 X77.6478 Y-9.1232
G01 X77.6541 Y-9.1126
G01 X77.6934 Y-9.0391
G01 X77.6987 Y-9.0279
G01 X77.7307 Y-8.9508
G01 X77.7348 Y-8.9392
G01 X77.7590 Y-8.8593
G01 X77.7621 Y-8.8473
G01 X77.7783 Y-8.7655
G01 X77.7801 Y-8.7533
G01 X77.7883 Y-8.6703
G01 X77.7899 Y-8.6162
G01 X77.7899 Y17.3054
G00 X77.7899 Y17.3054
G01 F60.00
G01 Z-1.8000
G01 F120.00
G01 X77.7899 Y-8.6162
G01 X77.7883 Y-8.6703
G01 X77.7801 Y-8.7533
G01 X77.7783 Y-8.7655
G01 X77.7621 Y-8.8473
G01 X77.7590 Y-8.8593
G01 X77.7348 Y-8.9392
G01 X77.7307 Y-8.9508
G01 X77.6987 Y-9.0279
G01 X77.6934 Y-9.0391
G01 X77.6541 Y-9.1126
G01 X77.6478 Y-9.1232
G01 X77.6014 Y-9.1926
G01 X77.5941 Y-9.2025
G01 X77.5411 Y-9.2670
G01 X77.5328 Y-9.2762
G01 X77.4738 Y-9.3352
G01 X77.4647 Y-9.3435
G01 X77.4002 Y-9.3964
G01 X77.3903 Y-9.4038
G01 X77.3209 Y-9.4501
G01 X77.3103 Y-9.4565
G01 X77.2367 Y-9.4958
G01 X77.2255 Y-9.5011
G01 X77.1485 Y-9.5330
G01 X77.1368 Y-9.5372
G01 X77.0570 Y-9.5614
G01 X77.0450 Y-9.5644
G01 X76.9632 Y-9.5807
G01 X76.9509 Y-9.5825
G01 X76.8679 Y-9.5906
G01 X76.8139 Y-9.5923
G01 X37.6376 Y-9.5923
G00 X37.6376 Y-9.5923
G01 F60.00
G01 Z-2.0000
G01 F120.00
G01 X76.8139 Y-9.5923
G01 X76.8679 Y-9.5906
G01 X76.9509 Y-9.5825
G01 X76.9632 Y-9.5807
G01 X77.0450 Y-9.5644
G01 X77.0570 Y-9.5614
G01 X77.1368 Y-9.5372
G01 X77.1485 Y-9.5330
G01 X77.2255 Y-9.5011
G01 X77.2367 Y-9.4958
G01 X77.3103 Y-9.4565
G01 X77.3209 Y-9.4501
G01 X77.3903 Y-9.4038
G01 X77.4002 Y-9.3964
G01 X77.4647 Y-9.3435
G01 X77.4738 Y-9.3352
G01 X77.5328 Y-9.2762
G01 X77.5411 Y-9.2670
G01 X77.5941 Y-9.2025
G01 X77.6014 Y-9.1926
G01 X77.6478 Y-9.1232
G01 X77.6541 Y-9.1126
G01 X77.6934 Y-9.0391
G01 X77.6987 Y-9.0279
G01 X77.7307 Y-8.9508
G01 X77.7348 Y-8.9392
G01 X77.7590 Y-8.8593
G01 X77.7621 Y-8.8473
G01 X77.7783 Y-8.7655
G01 X77.7801 Y-8.7533
G01 X77.7883 Y-8.6703
G01 X77.7899 Y-8.6162
G01 X77.7899 Y17.3054
G00 Z2.0000
M05
G00 Z2.0000
G00 Z15.00


