(G-CODE GENERATED BY FLATCAM v8.994 - www.flatcam.org - Version Date: 2020/11/7)

(Name: Gerber_BottomLayer.GBL_iso_combined_cnc)
(Type: G-code from Geometry)
(Units: MM)

(Created on Sunday, 14 August 2022 at 22:43)

(This preprocessor is the default preprocessor used by FlatCAM.)
(It is made to work with MACH3 compatible motion controllers.)

(TOOL DIAMETER: 0.1 mm)
(Feedrate_XY: 90.0 mm/min)
(Feedrate_Z: 60.0 mm/min)
(Feedrate rapids 1500.0 mm/min)

(Z_Cut: -0.112 mm)
(Z_Move: 2.0 mm)
(Z Start: None mm)
(Z End: 15.0 mm)
(X,Y End: None mm)
(Steps per circle: 64)
(Preprocessor Geometry: default)

(X range:   -0.0500 ...   70.0078  mm)
(Y range:   -0.0500 ...   37.2100  mm)

(Spindle Speed: 0.0 RPM)
G21
G90
G94

G01 F90.00

M5
G00 Z15.0000
G00 X0.0000 Y0.0000
T1
M6    
(MSG, Change to Tool Dia = 0.1000)
M0
G00 Z15.0000

M03
G01 F90.00
G00 X21.1057 Y3.3425
G01 F60.00
G01 Z-0.1120
G01 F90.00
G01 X21.1097 Y3.2567
G01 X21.1220 Y3.1742
G01 X21.1423 Y3.0933
G01 X21.1704 Y3.0147
G01 X21.2060 Y2.9393
G01 X21.2489 Y2.8678
G01 X21.2986 Y2.8008
G01 X21.3546 Y2.7390
G01 X21.4164 Y2.6829
G01 X21.4834 Y2.6333
G01 X21.5550 Y2.5904
G01 X21.6304 Y2.5547
G01 X21.7089 Y2.5266
G01 X21.7898 Y2.5063
G01 X21.8723 Y2.4941
G01 X21.9556 Y2.4900
G01 X22.0390 Y2.4941
G01 X22.1215 Y2.5063
G01 X22.2024 Y2.5266
G01 X22.2809 Y2.5547
G01 X22.3563 Y2.5904
G01 X22.4279 Y2.6333
G01 X22.4949 Y2.6829
G01 X22.5567 Y2.7390
G01 X22.6127 Y2.8008
G01 X22.6624 Y2.8678
G01 X22.7053 Y2.9393
G01 X22.7409 Y3.0147
G01 X22.7690 Y3.0933
G01 X22.7893 Y3.1742
G01 X22.8016 Y3.2567
G01 X22.8056 Y3.3400
G01 X22.8016 Y3.4233
G01 X22.7893 Y3.5058
G01 X22.7690 Y3.5867
G01 X22.7409 Y3.6653
G01 X22.7053 Y3.7407
G01 X22.6624 Y3.8122
G01 X22.6127 Y3.8792
G01 X22.5567 Y3.9410
G01 X22.4949 Y3.9971
G01 X22.4279 Y4.0467
G01 X22.3563 Y4.0896
G01 X22.2809 Y4.1253
G01 X22.2024 Y4.1534
G01 X22.1215 Y4.1737
G01 X22.0390 Y4.1859
G01 X21.9556 Y4.1900
G01 X21.8723 Y4.1859
G01 X21.7898 Y4.1737
G01 X21.7089 Y4.1534
G01 X21.6304 Y4.1253
G01 X21.5550 Y4.0896
G01 X21.4834 Y4.0467
G01 X21.4164 Y3.9971
G01 X21.3546 Y3.9410
G01 X21.2986 Y3.8792
G01 X21.2489 Y3.8122
G01 X21.2060 Y3.7407
G01 X21.1704 Y3.6653
G01 X21.1423 Y3.5867
G01 X21.1220 Y3.5058
G01 X21.1097 Y3.4233
G01 X21.1057 Y3.3425
G00 Z2.0000
G00 X21.1057 Y5.8825
G01 F60.00
G01 Z-0.1120
G01 F90.00
G01 X21.1097 Y5.7967
G01 X21.1220 Y5.7142
G01 X21.1423 Y5.6333
G01 X21.1704 Y5.5547
G01 X21.2060 Y5.4793
G01 X21.2489 Y5.4078
G01 X21.2986 Y5.3408
G01 X21.3546 Y5.2790
G01 X21.4164 Y5.2229
G01 X21.4834 Y5.1733
G01 X21.5550 Y5.1304
G01 X21.6304 Y5.0947
G01 X21.7089 Y5.0666
G01 X21.7898 Y5.0463
G01 X21.8723 Y5.0341
G01 X21.9556 Y5.0300
G01 X22.0390 Y5.0341
G01 X22.1215 Y5.0463
G01 X22.2024 Y5.0666
G01 X22.2809 Y5.0947
G01 X22.3563 Y5.1304
G01 X22.4279 Y5.1733
G01 X22.4949 Y5.2229
G01 X22.5567 Y5.2790
G01 X22.6127 Y5.3408
G01 X22.6624 Y5.4078
G01 X22.7053 Y5.4793
G01 X22.7409 Y5.5547
G01 X22.7690 Y5.6333
G01 X22.7893 Y5.7142
G01 X22.8016 Y5.7967
G01 X22.8056 Y5.8800
G01 X22.8016 Y5.9633
G01 X22.7893 Y6.0458
G01 X22.7690 Y6.1267
G01 X22.7409 Y6.2053
G01 X22.7053 Y6.2807
G01 X22.6624 Y6.3522
G01 X22.6127 Y6.4192
G01 X22.5567 Y6.4810
G01 X22.4949 Y6.5371
G01 X22.4279 Y6.5867
G01 X22.3563 Y6.6296
G01 X22.2809 Y6.6653
G01 X22.2024 Y6.6934
G01 X22.1215 Y6.7137
G01 X22.0390 Y6.7259
G01 X21.9556 Y6.7300
G01 X21.8723 Y6.7259
G01 X21.7898 Y6.7137
G01 X21.7089 Y6.6934
G01 X21.6304 Y6.6653
G01 X21.5550 Y6.6296
G01 X21.4834 Y6.5867
G01 X21.4164 Y6.5371
G01 X21.3546 Y6.4810
G01 X21.2986 Y6.4192
G01 X21.2489 Y6.3522
G01 X21.2060 Y6.2807
G01 X21.1704 Y6.2053
G01 X21.1423 Y6.1267
G01 X21.1220 Y6.0458
G01 X21.1097 Y5.9633
G01 X21.1057 Y5.8825
G00 Z2.0000
G00 X21.1057 Y8.4225
G01 F60.00
G01 Z-0.1120
G01 F90.00
G01 X21.1097 Y8.3367
G01 X21.1220 Y8.2542
G01 X21.1423 Y8.1733
G01 X21.1704 Y8.0947
G01 X21.2060 Y8.0193
G01 X21.2489 Y7.9478
G01 X21.2986 Y7.8808
G01 X21.3546 Y7.8190
G01 X21.4164 Y7.7629
G01 X21.4834 Y7.7133
G01 X21.5550 Y7.6704
G01 X21.6304 Y7.6347
G01 X21.7089 Y7.6066
G01 X21.7898 Y7.5863
G01 X21.8723 Y7.5741
G01 X21.9556 Y7.5700
G01 X22.0390 Y7.5741
G01 X22.1215 Y7.5863
G01 X22.2024 Y7.6066
G01 X22.2809 Y7.6347
G01 X22.3563 Y7.6704
G01 X22.4279 Y7.7133
G01 X22.4949 Y7.7629
G01 X22.5567 Y7.8190
G01 X22.6127 Y7.8808
G01 X22.6624 Y7.9478
G01 X22.7053 Y8.0193
G01 X22.7409 Y8.0947
G01 X22.7690 Y8.1733
G01 X22.7893 Y8.2542
G01 X22.8016 Y8.3367
G01 X22.8056 Y8.4200
G01 X22.8016 Y8.5033
G01 X22.7893 Y8.5858
G01 X22.7690 Y8.6667
G01 X22.7409 Y8.7453
G01 X22.7053 Y8.8207
G01 X22.6624 Y8.8922
G01 X22.6127 Y8.9592
G01 X22.5567 Y9.0210
G01 X22.4949 Y9.0771
G01 X22.4279 Y9.1267
G01 X22.3563 Y9.1696
G01 X22.2809 Y9.2053
G01 X22.2024 Y9.2334
G01 X22.1215 Y9.2537
G01 X22.0390 Y9.2659
G01 X21.9556 Y9.2700
G01 X21.8723 Y9.2659
G01 X21.7898 Y9.2537
G01 X21.7089 Y9.2334
G01 X21.6304 Y9.2053
G01 X21.5550 Y9.1696
G01 X21.4834 Y9.1267
G01 X21.4164 Y9.0771
G01 X21.3546 Y9.0210
G01 X21.2986 Y8.9592
G01 X21.2489 Y8.8922
G01 X21.2060 Y8.8207
G01 X21.1704 Y8.7453
G01 X21.1423 Y8.6667
G01 X21.1220 Y8.5858
G01 X21.1097 Y8.5033
G01 X21.1057 Y8.4225
G00 Z2.0000
G00 X21.1613 Y10.6599
G01 F60.00
G01 Z-0.1120
G01 F90.00
G01 X21.1708 Y10.6336
G01 X21.2055 Y10.5604
G01 X21.2482 Y10.4888
G01 X21.2986 Y10.4208
G01 X21.3538 Y10.3598
G01 X21.4164 Y10.3029
G01 X21.4834 Y10.2533
G01 X21.5550 Y10.2104
G01 X21.6292 Y10.1752
G01 X21.7089 Y10.1466
G01 X21.7898 Y10.1263
G01 X21.8723 Y10.1141
G01 X21.9556 Y10.1100
G01 X22.0390 Y10.1141
G01 X22.1215 Y10.1263
G01 X22.2024 Y10.1466
G01 X22.2798 Y10.1742
G01 X22.3563 Y10.2104
G01 X22.4279 Y10.2533
G01 X22.4949 Y10.3029
G01 X22.5567 Y10.3590
G01 X22.6127 Y10.4208
G01 X22.6624 Y10.4878
G01 X22.7053 Y10.5593
G01 X22.7409 Y10.6347
G01 X22.7690 Y10.7133
G01 X22.7893 Y10.7942
G01 X22.8016 Y10.8767
G01 X22.8056 Y10.9600
G01 X22.8016 Y11.0433
G01 X22.7893 Y11.1258
G01 X22.7690 Y11.2067
G01 X22.7414 Y11.2841
G01 X22.7041 Y11.3628
G01 X22.6624 Y11.4322
G01 X22.6127 Y11.4992
G01 X22.5567 Y11.5610
G01 X22.4967 Y11.6155
G01 X22.4279 Y11.6667
G01 X22.3563 Y11.7096
G01 X22.2832 Y11.7443
G01 X22.2024 Y11.7734
G01 X22.1215 Y11.7937
G01 X22.0414 Y11.8056
G01 X21.9556 Y11.8100
G01 X21.8699 Y11.8056
G01 X21.7898 Y11.7937
G01 X21.7089 Y11.7734
G01 X21.6304 Y11.7453
G01 X21.5572 Y11.7107
G01 X21.4824 Y11.6661
G01 X21.4164 Y11.6171
G01 X21.3564 Y11.5627
G01 X21.2978 Y11.4983
G01 X21.2489 Y11.4322
G01 X21.2066 Y11.3618
G01 X21.1708 Y11.2864
G01 X21.1613 Y11.2601
G01 X1.5944 Y11.2601
G01 X1.5848 Y11.2864
G01 X1.5490 Y11.3618
G01 X1.5067 Y11.4322
G01 X1.4578 Y11.4983
G01 X1.3993 Y11.5627
G01 X1.3392 Y11.6171
G01 X1.2732 Y11.6661
G01 X1.1985 Y11.7107
G01 X1.1253 Y11.7453
G01 X1.0467 Y11.7734
G01 X0.9658 Y11.7937
G01 X0.8858 Y11.8056
G01 X0.7988 Y11.8100
G01 X0.7167 Y11.8059
G01 X0.6342 Y11.7937
G01 X0.5533 Y11.7734
G01 X0.4747 Y11.7453
G01 X0.3993 Y11.7096
G01 X0.3278 Y11.6667
G01 X0.2608 Y11.6171
G01 X0.1990 Y11.5610
G01 X0.1429 Y11.4992
G01 X0.0933 Y11.4322
G01 X0.0504 Y11.3607
G01 X0.0147 Y11.2853
G01 X-0.0134 Y11.2067
G01 X-0.0337 Y11.1258
G01 X-0.0459 Y11.0433
G01 X-0.0500 Y10.9612
G01 X-0.0459 Y10.8767
G01 X-0.0337 Y10.7942
G01 X-0.0134 Y10.7133
G01 X0.0147 Y10.6347
G01 X0.0504 Y10.5593
G01 X0.0933 Y10.4878
G01 X0.1429 Y10.4208
G01 X0.1990 Y10.3590
G01 X0.2608 Y10.3029
G01 X0.3278 Y10.2533
G01 X0.3993 Y10.2104
G01 X0.4747 Y10.1747
G01 X0.5533 Y10.1466
G01 X0.6342 Y10.1263
G01 X0.7167 Y10.1141
G01 X0.7988 Y10.1100
G01 X0.8858 Y10.1144
G01 X0.9658 Y10.1263
G01 X1.0467 Y10.1466
G01 X1.1253 Y10.1747
G01 X1.1985 Y10.2093
G01 X1.2732 Y10.2539
G01 X1.3392 Y10.3029
G01 X1.3993 Y10.3573
G01 X1.4578 Y10.4217
G01 X1.5067 Y10.4878
G01 X1.5490 Y10.5582
G01 X1.5848 Y10.6336
G01 X1.5944 Y10.6599
G01 X21.1613 Y10.6599
G00 Z2.0000
G00 X21.1613 Y13.1999
G01 F60.00
G01 Z-0.1120
G01 F90.00
G01 X21.1708 Y13.1736
G01 X21.2055 Y13.1004
G01 X21.2482 Y13.0288
G01 X21.2986 Y12.9608
G01 X21.3538 Y12.8998
G01 X21.4164 Y12.8429
G01 X21.4834 Y12.7933
G01 X21.5550 Y12.7504
G01 X21.6292 Y12.7152
G01 X21.7089 Y12.6866
G01 X21.7898 Y12.6663
G01 X21.8723 Y12.6541
G01 X21.9556 Y12.6500
G01 X22.0390 Y12.6541
G01 X22.1215 Y12.6663
G01 X22.2024 Y12.6866
G01 X22.2798 Y12.7142
G01 X22.3563 Y12.7504
G01 X22.4279 Y12.7933
G01 X22.4949 Y12.8429
G01 X22.5567 Y12.8990
G01 X22.6127 Y12.9608
G01 X22.6624 Y13.0278
G01 X22.7053 Y13.0993
G01 X22.7409 Y13.1747
G01 X22.7690 Y13.2533
G01 X22.7893 Y13.3342
G01 X22.8016 Y13.4167
G01 X22.8056 Y13.5000
G01 X22.8016 Y13.5833
G01 X22.7893 Y13.6658
G01 X22.7690 Y13.7467
G01 X22.7414 Y13.8241
G01 X22.7041 Y13.9028
G01 X22.6624 Y13.9722
G01 X22.6127 Y14.0392
G01 X22.5549 Y14.1027
G01 X22.4949 Y14.1571
G01 X22.4279 Y14.2067
G01 X22.3541 Y14.2507
G01 X22.2809 Y14.2853
G01 X22.2024 Y14.3134
G01 X22.1215 Y14.3337
G01 X22.0414 Y14.3456
G01 X21.9556 Y14.3500
G01 X21.8723 Y14.3459
G01 X21.7922 Y14.3341
G01 X21.7089 Y14.3134
G01 X21.6304 Y14.2853
G01 X21.5572 Y14.2507
G01 X21.4824 Y14.2061
G01 X21.4164 Y14.1571
G01 X21.3564 Y14.1027
G01 X21.2978 Y14.0383
G01 X21.2489 Y13.9722
G01 X21.2066 Y13.9018
G01 X21.1708 Y13.8264
G01 X21.1613 Y13.8001
G01 X1.5944 Y13.8001
G01 X1.5848 Y13.8264
G01 X1.5490 Y13.9018
G01 X1.5067 Y13.9722
G01 X1.4578 Y14.0383
G01 X1.3993 Y14.1027
G01 X1.3392 Y14.1571
G01 X1.2732 Y14.2061
G01 X1.1985 Y14.2507
G01 X1.1253 Y14.2853
G01 X1.0467 Y14.3134
G01 X0.9658 Y14.3337
G01 X0.8858 Y14.3456
G01 X0.7988 Y14.3500
G01 X0.7167 Y14.3459
G01 X0.6342 Y14.3337
G01 X0.5533 Y14.3134
G01 X0.4747 Y14.2853
G01 X0.3993 Y14.2496
G01 X0.3278 Y14.2067
G01 X0.2608 Y14.1571
G01 X0.1990 Y14.1010
G01 X0.1429 Y14.0392
G01 X0.0933 Y13.9722
G01 X0.0504 Y13.9007
G01 X0.0147 Y13.8253
G01 X-0.0134 Y13.7467
G01 X-0.0337 Y13.6658
G01 X-0.0459 Y13.5833
G01 X-0.0500 Y13.5012
G01 X-0.0459 Y13.4167
G01 X-0.0337 Y13.3342
G01 X-0.0134 Y13.2533
G01 X0.0147 Y13.1747
G01 X0.0504 Y13.0993
G01 X0.0933 Y13.0278
G01 X0.1429 Y12.9608
G01 X0.1990 Y12.8990
G01 X0.2608 Y12.8429
G01 X0.3278 Y12.7933
G01 X0.3993 Y12.7504
G01 X0.4747 Y12.7147
G01 X0.5533 Y12.6866
G01 X0.6342 Y12.6663
G01 X0.7167 Y12.6541
G01 X0.7988 Y12.6500
G01 X0.8858 Y12.6544
G01 X0.9658 Y12.6663
G01 X1.0467 Y12.6866
G01 X1.1253 Y12.7147
G01 X1.1985 Y12.7493
G01 X1.2732 Y12.7939
G01 X1.3392 Y12.8429
G01 X1.3993 Y12.8973
G01 X1.4578 Y12.9617
G01 X1.5067 Y13.0278
G01 X1.5490 Y13.0982
G01 X1.5848 Y13.1736
G01 X1.5944 Y13.1999
G01 X21.1613 Y13.1999
G00 Z2.0000
G00 X21.1057 Y16.0425
G01 F60.00
G01 Z-0.1120
G01 F90.00
G01 X21.1097 Y15.9567
G01 X21.1220 Y15.8742
G01 X21.1423 Y15.7933
G01 X21.1704 Y15.7147
G01 X21.2060 Y15.6393
G01 X21.2489 Y15.5678
G01 X21.2986 Y15.5008
G01 X21.3546 Y15.4390
G01 X21.4164 Y15.3829
G01 X21.4834 Y15.3333
G01 X21.5550 Y15.2904
G01 X21.6304 Y15.2547
G01 X21.7089 Y15.2266
G01 X21.7898 Y15.2063
G01 X21.8723 Y15.1941
G01 X21.9556 Y15.1900
G01 X22.0390 Y15.1941
G01 X22.1215 Y15.2063
G01 X22.2024 Y15.2266
G01 X22.2809 Y15.2547
G01 X22.3563 Y15.2904
G01 X22.4279 Y15.3333
G01 X22.4949 Y15.3829
G01 X22.5567 Y15.4390
G01 X22.6127 Y15.5008
G01 X22.6624 Y15.5678
G01 X22.7053 Y15.6393
G01 X22.7409 Y15.7147
G01 X22.7690 Y15.7933
G01 X22.7893 Y15.8742
G01 X22.8016 Y15.9567
G01 X22.8056 Y16.0400
G01 X22.8016 Y16.1233
G01 X22.7893 Y16.2058
G01 X22.7690 Y16.2867
G01 X22.7409 Y16.3653
G01 X22.7053 Y16.4407
G01 X22.6624 Y16.5122
G01 X22.6127 Y16.5792
G01 X22.5567 Y16.6410
G01 X22.4949 Y16.6971
G01 X22.4279 Y16.7467
G01 X22.3563 Y16.7896
G01 X22.2809 Y16.8253
G01 X22.2024 Y16.8534
G01 X22.1215 Y16.8737
G01 X22.0390 Y16.8859
G01 X21.9556 Y16.8900
G01 X21.8723 Y16.8859
G01 X21.7898 Y16.8737
G01 X21.7089 Y16.8534
G01 X21.6304 Y16.8253
G01 X21.5550 Y16.7896
G01 X21.4834 Y16.7467
G01 X21.4164 Y16.6971
G01 X21.3546 Y16.6410
G01 X21.2986 Y16.5792
G01 X21.2489 Y16.5122
G01 X21.2060 Y16.4407
G01 X21.1704 Y16.3653
G01 X21.1423 Y16.2867
G01 X21.1220 Y16.2058
G01 X21.1097 Y16.1233
G01 X21.1057 Y16.0425
G00 Z2.0000
G00 X21.1057 Y18.5825
G01 F60.00
G01 Z-0.1120
G01 F90.00
G01 X21.1097 Y18.4967
G01 X21.1220 Y18.4142
G01 X21.1423 Y18.3333
G01 X21.1704 Y18.2547
G01 X21.2060 Y18.1793
G01 X21.2489 Y18.1078
G01 X21.2986 Y18.0408
G01 X21.3546 Y17.9790
G01 X21.4164 Y17.9229
G01 X21.4834 Y17.8733
G01 X21.5550 Y17.8304
G01 X21.6304 Y17.7947
G01 X21.7089 Y17.7666
G01 X21.7898 Y17.7463
G01 X21.8723 Y17.7341
G01 X21.9556 Y17.7300
G01 X22.0390 Y17.7341
G01 X22.1215 Y17.7463
G01 X22.2024 Y17.7666
G01 X22.2809 Y17.7947
G01 X22.3563 Y17.8304
G01 X22.4279 Y17.8733
G01 X22.4949 Y17.9229
G01 X22.5567 Y17.9790
G01 X22.6127 Y18.0408
G01 X22.6624 Y18.1078
G01 X22.7053 Y18.1793
G01 X22.7409 Y18.2547
G01 X22.7690 Y18.3333
G01 X22.7893 Y18.4142
G01 X22.8016 Y18.4967
G01 X22.8056 Y18.5800
G01 X22.8016 Y18.6633
G01 X22.7893 Y18.7458
G01 X22.7690 Y18.8267
G01 X22.7409 Y18.9053
G01 X22.7053 Y18.9807
G01 X22.6624 Y19.0522
G01 X22.6127 Y19.1192
G01 X22.5567 Y19.1810
G01 X22.4949 Y19.2371
G01 X22.4279 Y19.2867
G01 X22.3563 Y19.3296
G01 X22.2809 Y19.3653
G01 X22.2024 Y19.3934
G01 X22.1215 Y19.4137
G01 X22.0390 Y19.4259
G01 X21.9556 Y19.4300
G01 X21.8723 Y19.4259
G01 X21.7898 Y19.4137
G01 X21.7089 Y19.3934
G01 X21.6304 Y19.3653
G01 X21.5550 Y19.3296
G01 X21.4834 Y19.2867
G01 X21.4164 Y19.2371
G01 X21.3546 Y19.1810
G01 X21.2986 Y19.1192
G01 X21.2489 Y19.0522
G01 X21.2060 Y18.9807
G01 X21.1704 Y18.9053
G01 X21.1423 Y18.8267
G01 X21.1220 Y18.7458
G01 X21.1097 Y18.6633
G01 X21.1057 Y18.5825
G00 Z2.0000
G00 X21.1057 Y21.1225
G01 F60.00
G01 Z-0.1120
G01 F90.00
G01 X21.1097 Y21.0367
G01 X21.1220 Y20.9542
G01 X21.1423 Y20.8733
G01 X21.1704 Y20.7947
G01 X21.2060 Y20.7193
G01 X21.2489 Y20.6478
G01 X21.2986 Y20.5808
G01 X21.3546 Y20.5190
G01 X21.4164 Y20.4629
G01 X21.4834 Y20.4133
G01 X21.5550 Y20.3704
G01 X21.6304 Y20.3347
G01 X21.7089 Y20.3066
G01 X21.7898 Y20.2863
G01 X21.8723 Y20.2741
G01 X21.9556 Y20.2700
G01 X22.0390 Y20.2741
G01 X22.1215 Y20.2863
G01 X22.2024 Y20.3066
G01 X22.2809 Y20.3347
G01 X22.3563 Y20.3704
G01 X22.4279 Y20.4133
G01 X22.4949 Y20.4629
G01 X22.5567 Y20.5190
G01 X22.6127 Y20.5808
G01 X22.6624 Y20.6478
G01 X22.7053 Y20.7193
G01 X22.7409 Y20.7947
G01 X22.7690 Y20.8733
G01 X22.7893 Y20.9542
G01 X22.8016 Y21.0367
G01 X22.8056 Y21.1200
G01 X22.8016 Y21.2033
G01 X22.7893 Y21.2858
G01 X22.7690 Y21.3667
G01 X22.7409 Y21.4453
G01 X22.7053 Y21.5207
G01 X22.6624 Y21.5922
G01 X22.6127 Y21.6592
G01 X22.5567 Y21.7210
G01 X22.4949 Y21.7771
G01 X22.4279 Y21.8267
G01 X22.3563 Y21.8696
G01 X22.2809 Y21.9053
G01 X22.2024 Y21.9334
G01 X22.1215 Y21.9537
G01 X22.0390 Y21.9659
G01 X21.9556 Y21.9700
G01 X21.8723 Y21.9659
G01 X21.7898 Y21.9537
G01 X21.7089 Y21.9334
G01 X21.6304 Y21.9053
G01 X21.5550 Y21.8696
G01 X21.4834 Y21.8267
G01 X21.4164 Y21.7771
G01 X21.3546 Y21.7210
G01 X21.2986 Y21.6592
G01 X21.2489 Y21.5922
G01 X21.2060 Y21.5207
G01 X21.1704 Y21.4453
G01 X21.1423 Y21.3667
G01 X21.1220 Y21.2858
G01 X21.1097 Y21.2033
G01 X21.1057 Y21.1225
G00 Z2.0000
G00 X21.1057 Y23.6625
G01 F60.00
G01 Z-0.1120
G01 F90.00
G01 X21.1097 Y23.5767
G01 X21.1220 Y23.4942
G01 X21.1423 Y23.4133
G01 X21.1704 Y23.3347
G01 X21.2060 Y23.2593
G01 X21.2489 Y23.1878
G01 X21.2986 Y23.1208
G01 X21.3546 Y23.0590
G01 X21.4164 Y23.0029
G01 X21.4834 Y22.9533
G01 X21.5550 Y22.9104
G01 X21.6304 Y22.8747
G01 X21.7089 Y22.8466
G01 X21.7898 Y22.8263
G01 X21.8723 Y22.8141
G01 X21.9556 Y22.8100
G01 X22.0390 Y22.8141
G01 X22.1215 Y22.8263
G01 X22.2024 Y22.8466
G01 X22.2809 Y22.8747
G01 X22.3563 Y22.9104
G01 X22.4279 Y22.9533
G01 X22.4949 Y23.0029
G01 X22.5567 Y23.0590
G01 X22.6127 Y23.1208
G01 X22.6624 Y23.1878
G01 X22.7053 Y23.2593
G01 X22.7409 Y23.3347
G01 X22.7690 Y23.4133
G01 X22.7893 Y23.4942
G01 X22.8016 Y23.5767
G01 X22.8056 Y23.6600
G01 X22.8016 Y23.7433
G01 X22.7893 Y23.8258
G01 X22.7690 Y23.9067
G01 X22.7409 Y23.9853
G01 X22.7053 Y24.0607
G01 X22.6624 Y24.1322
G01 X22.6127 Y24.1992
G01 X22.5567 Y24.2610
G01 X22.4949 Y24.3171
G01 X22.4279 Y24.3667
G01 X22.3563 Y24.4096
G01 X22.2809 Y24.4453
G01 X22.2024 Y24.4734
G01 X22.1215 Y24.4937
G01 X22.0390 Y24.5059
G01 X21.9556 Y24.5100
G01 X21.8723 Y24.5059
G01 X21.7898 Y24.4937
G01 X21.7089 Y24.4734
G01 X21.6304 Y24.4453
G01 X21.5550 Y24.4096
G01 X21.4834 Y24.3667
G01 X21.4164 Y24.3171
G01 X21.3546 Y24.2610
G01 X21.2986 Y24.1992
G01 X21.2489 Y24.1322
G01 X21.2060 Y24.0607
G01 X21.1704 Y23.9853
G01 X21.1423 Y23.9067
G01 X21.1220 Y23.8258
G01 X21.1097 Y23.7433
G01 X21.1057 Y23.6625
G00 Z2.0000
G00 X21.1057 Y26.2025
G01 F60.00
G01 Z-0.1120
G01 F90.00
G01 X21.1097 Y26.1167
G01 X21.1220 Y26.0342
G01 X21.1423 Y25.9533
G01 X21.1704 Y25.8747
G01 X21.2060 Y25.7993
G01 X21.2489 Y25.7278
G01 X21.2986 Y25.6608
G01 X21.3546 Y25.5990
G01 X21.4164 Y25.5429
G01 X21.4834 Y25.4933
G01 X21.5550 Y25.4504
G01 X21.6304 Y25.4147
G01 X21.7089 Y25.3866
G01 X21.7898 Y25.3663
G01 X21.8723 Y25.3541
G01 X21.9556 Y25.3500
G01 X22.0390 Y25.3541
G01 X22.1215 Y25.3663
G01 X22.2024 Y25.3866
G01 X22.2809 Y25.4147
G01 X22.3563 Y25.4504
G01 X22.4279 Y25.4933
G01 X22.4949 Y25.5429
G01 X22.5567 Y25.5990
G01 X22.6127 Y25.6608
G01 X22.6624 Y25.7278
G01 X22.7053 Y25.7993
G01 X22.7409 Y25.8747
G01 X22.7690 Y25.9533
G01 X22.7893 Y26.0342
G01 X22.8016 Y26.1167
G01 X22.8056 Y26.2000
G01 X22.8016 Y26.2833
G01 X22.7893 Y26.3658
G01 X22.7690 Y26.4467
G01 X22.7409 Y26.5253
G01 X22.7053 Y26.6007
G01 X22.6624 Y26.6722
G01 X22.6127 Y26.7392
G01 X22.5567 Y26.8010
G01 X22.4949 Y26.8571
G01 X22.4279 Y26.9067
G01 X22.3563 Y26.9496
G01 X22.2809 Y26.9853
G01 X22.2024 Y27.0134
G01 X22.1215 Y27.0337
G01 X22.0390 Y27.0459
G01 X21.9556 Y27.0500
G01 X21.8723 Y27.0459
G01 X21.7898 Y27.0337
G01 X21.7089 Y27.0134
G01 X21.6304 Y26.9853
G01 X21.5550 Y26.9496
G01 X21.4834 Y26.9067
G01 X21.4164 Y26.8571
G01 X21.3546 Y26.8010
G01 X21.2986 Y26.7392
G01 X21.2489 Y26.6722
G01 X21.2060 Y26.6007
G01 X21.1704 Y26.5253
G01 X21.1423 Y26.4467
G01 X21.1220 Y26.3658
G01 X21.1097 Y26.2833
G01 X21.1057 Y26.2025
G00 Z2.0000
G00 X21.1057 Y36.3625
G01 F60.00
G01 Z-0.1120
G01 F90.00
G01 X21.1097 Y36.2767
G01 X21.1220 Y36.1942
G01 X21.1423 Y36.1133
G01 X21.1704 Y36.0347
G01 X21.2060 Y35.9593
G01 X21.2489 Y35.8878
G01 X21.2986 Y35.8208
G01 X21.3546 Y35.7590
G01 X21.4164 Y35.7029
G01 X21.4834 Y35.6533
G01 X21.5550 Y35.6104
G01 X21.6304 Y35.5747
G01 X21.7089 Y35.5466
G01 X21.7898 Y35.5263
G01 X21.8723 Y35.5141
G01 X21.9556 Y35.5100
G01 X22.0390 Y35.5141
G01 X22.1215 Y35.5263
G01 X22.2024 Y35.5466
G01 X22.2809 Y35.5747
G01 X22.3563 Y35.6104
G01 X22.4279 Y35.6533
G01 X22.4949 Y35.7029
G01 X22.5567 Y35.7590
G01 X22.6127 Y35.8208
G01 X22.6624 Y35.8878
G01 X22.7053 Y35.9593
G01 X22.7409 Y36.0347
G01 X22.7690 Y36.1133
G01 X22.7893 Y36.1942
G01 X22.8016 Y36.2767
G01 X22.8056 Y36.3600
G01 X22.8016 Y36.4433
G01 X22.7893 Y36.5258
G01 X22.7690 Y36.6067
G01 X22.7409 Y36.6853
G01 X22.7053 Y36.7607
G01 X22.6624 Y36.8322
G01 X22.6127 Y36.8992
G01 X22.5567 Y36.9610
G01 X22.4949 Y37.0171
G01 X22.4279 Y37.0667
G01 X22.3563 Y37.1096
G01 X22.2809 Y37.1453
G01 X22.2024 Y37.1734
G01 X22.1215 Y37.1937
G01 X22.0390 Y37.2059
G01 X21.9556 Y37.2100
G01 X21.8723 Y37.2059
G01 X21.7898 Y37.1937
G01 X21.7089 Y37.1734
G01 X21.6304 Y37.1453
G01 X21.5550 Y37.1096
G01 X21.4834 Y37.0667
G01 X21.4164 Y37.0171
G01 X21.3546 Y36.9610
G01 X21.2986 Y36.8992
G01 X21.2489 Y36.8322
G01 X21.2060 Y36.7607
G01 X21.1704 Y36.6853
G01 X21.1423 Y36.6067
G01 X21.1220 Y36.5258
G01 X21.1097 Y36.4433
G01 X21.1057 Y36.3625
G00 Z2.0000
G00 X36.3457 Y36.3625
G01 F60.00
G01 Z-0.1120
G01 F90.00
G01 X36.3497 Y36.2767
G01 X36.3620 Y36.1942
G01 X36.3823 Y36.1133
G01 X36.4104 Y36.0347
G01 X36.4460 Y35.9593
G01 X36.4889 Y35.8878
G01 X36.5386 Y35.8208
G01 X36.5946 Y35.7590
G01 X36.6564 Y35.7029
G01 X36.7234 Y35.6533
G01 X36.7950 Y35.6104
G01 X36.8704 Y35.5747
G01 X36.9489 Y35.5466
G01 X37.0298 Y35.5263
G01 X37.1123 Y35.5141
G01 X37.1956 Y35.5100
G01 X37.2790 Y35.5141
G01 X37.3615 Y35.5263
G01 X37.4424 Y35.5466
G01 X37.5209 Y35.5747
G01 X37.5963 Y35.6104
G01 X37.6679 Y35.6533
G01 X37.7349 Y35.7029
G01 X37.7967 Y35.7590
G01 X37.8527 Y35.8208
G01 X37.9024 Y35.8878
G01 X37.9453 Y35.9593
G01 X37.9809 Y36.0347
G01 X38.0090 Y36.1133
G01 X38.0293 Y36.1942
G01 X38.0416 Y36.2767
G01 X38.0456 Y36.3600
G01 X38.0416 Y36.4433
G01 X38.0293 Y36.5258
G01 X38.0090 Y36.6067
G01 X37.9809 Y36.6853
G01 X37.9453 Y36.7607
G01 X37.9024 Y36.8322
G01 X37.8527 Y36.8992
G01 X37.7967 Y36.9610
G01 X37.7349 Y37.0171
G01 X37.6679 Y37.0667
G01 X37.5963 Y37.1096
G01 X37.5209 Y37.1453
G01 X37.4424 Y37.1734
G01 X37.3615 Y37.1937
G01 X37.2790 Y37.2059
G01 X37.1956 Y37.2100
G01 X37.1123 Y37.2059
G01 X37.0298 Y37.1937
G01 X36.9489 Y37.1734
G01 X36.8704 Y37.1453
G01 X36.7950 Y37.1096
G01 X36.7234 Y37.0667
G01 X36.6564 Y37.0171
G01 X36.5946 Y36.9610
G01 X36.5386 Y36.8992
G01 X36.4889 Y36.8322
G01 X36.4460 Y36.7607
G01 X36.4104 Y36.6853
G01 X36.3823 Y36.6067
G01 X36.3620 Y36.5258
G01 X36.3497 Y36.4433
G01 X36.3457 Y36.3625
G00 Z2.0000
G00 X36.3457 Y33.8225
G01 F60.00
G01 Z-0.1120
G01 F90.00
G01 X36.3497 Y33.7367
G01 X36.3620 Y33.6542
G01 X36.3823 Y33.5733
G01 X36.4104 Y33.4947
G01 X36.4460 Y33.4193
G01 X36.4889 Y33.3478
G01 X36.5386 Y33.2808
G01 X36.5946 Y33.2190
G01 X36.6564 Y33.1629
G01 X36.7234 Y33.1133
G01 X36.7950 Y33.0704
G01 X36.8704 Y33.0347
G01 X36.9489 Y33.0066
G01 X37.0298 Y32.9863
G01 X37.1123 Y32.9741
G01 X37.1956 Y32.9700
G01 X37.2790 Y32.9741
G01 X37.3615 Y32.9863
G01 X37.4424 Y33.0066
G01 X37.5209 Y33.0347
G01 X37.5963 Y33.0704
G01 X37.6679 Y33.1133
G01 X37.7349 Y33.1629
G01 X37.7967 Y33.2190
G01 X37.8527 Y33.2808
G01 X37.9024 Y33.3478
G01 X37.9453 Y33.4193
G01 X37.9809 Y33.4947
G01 X38.0090 Y33.5733
G01 X38.0293 Y33.6542
G01 X38.0416 Y33.7367
G01 X38.0456 Y33.8200
G01 X38.0416 Y33.9033
G01 X38.0293 Y33.9858
G01 X38.0090 Y34.0667
G01 X37.9809 Y34.1453
G01 X37.9453 Y34.2207
G01 X37.9024 Y34.2922
G01 X37.8527 Y34.3592
G01 X37.7967 Y34.4210
G01 X37.7349 Y34.4771
G01 X37.6679 Y34.5267
G01 X37.5963 Y34.5696
G01 X37.5209 Y34.6053
G01 X37.4424 Y34.6334
G01 X37.3615 Y34.6537
G01 X37.2790 Y34.6659
G01 X37.1956 Y34.6700
G01 X37.1123 Y34.6659
G01 X37.0298 Y34.6537
G01 X36.9489 Y34.6334
G01 X36.8704 Y34.6053
G01 X36.7950 Y34.5696
G01 X36.7234 Y34.5267
G01 X36.6564 Y34.4771
G01 X36.5946 Y34.4210
G01 X36.5386 Y34.3592
G01 X36.4889 Y34.2922
G01 X36.4460 Y34.2207
G01 X36.4104 Y34.1453
G01 X36.3823 Y34.0667
G01 X36.3620 Y33.9858
G01 X36.3497 Y33.9033
G01 X36.3457 Y33.8225
G00 Z2.0000
G00 X36.3457 Y31.2825
G01 F60.00
G01 Z-0.1120
G01 F90.00
G01 X36.3497 Y31.1967
G01 X36.3620 Y31.1142
G01 X36.3823 Y31.0333
G01 X36.4104 Y30.9547
G01 X36.4460 Y30.8793
G01 X36.4889 Y30.8078
G01 X36.5386 Y30.7408
G01 X36.5946 Y30.6790
G01 X36.6564 Y30.6229
G01 X36.7234 Y30.5733
G01 X36.7950 Y30.5304
G01 X36.8704 Y30.4947
G01 X36.9489 Y30.4666
G01 X37.0298 Y30.4463
G01 X37.1123 Y30.4341
G01 X37.1956 Y30.4300
G01 X37.2790 Y30.4341
G01 X37.3615 Y30.4463
G01 X37.4424 Y30.4666
G01 X37.5209 Y30.4947
G01 X37.5963 Y30.5304
G01 X37.6679 Y30.5733
G01 X37.7349 Y30.6229
G01 X37.7967 Y30.6790
G01 X37.8527 Y30.7408
G01 X37.9024 Y30.8078
G01 X37.9453 Y30.8793
G01 X37.9809 Y30.9547
G01 X38.0090 Y31.0333
G01 X38.0293 Y31.1142
G01 X38.0416 Y31.1967
G01 X38.0456 Y31.2800
G01 X38.0416 Y31.3633
G01 X38.0293 Y31.4458
G01 X38.0090 Y31.5267
G01 X37.9809 Y31.6053
G01 X37.9453 Y31.6807
G01 X37.9024 Y31.7522
G01 X37.8527 Y31.8192
G01 X37.7967 Y31.8810
G01 X37.7349 Y31.9371
G01 X37.6679 Y31.9867
G01 X37.5963 Y32.0296
G01 X37.5209 Y32.0653
G01 X37.4424 Y32.0934
G01 X37.3615 Y32.1137
G01 X37.2790 Y32.1259
G01 X37.1956 Y32.1300
G01 X37.1123 Y32.1259
G01 X37.0298 Y32.1137
G01 X36.9489 Y32.0934
G01 X36.8704 Y32.0653
G01 X36.7950 Y32.0296
G01 X36.7234 Y31.9867
G01 X36.6564 Y31.9371
G01 X36.5946 Y31.8810
G01 X36.5386 Y31.8192
G01 X36.4889 Y31.7522
G01 X36.4460 Y31.6807
G01 X36.4104 Y31.6053
G01 X36.3823 Y31.5267
G01 X36.3620 Y31.4458
G01 X36.3497 Y31.3633
G01 X36.3457 Y31.2825
G00 Z2.0000
G00 X36.3457 Y28.7425
G01 F60.00
G01 Z-0.1120
G01 F90.00
G01 X36.3497 Y28.6567
G01 X36.3620 Y28.5742
G01 X36.3823 Y28.4933
G01 X36.4104 Y28.4147
G01 X36.4460 Y28.3393
G01 X36.4889 Y28.2678
G01 X36.5386 Y28.2008
G01 X36.5946 Y28.1390
G01 X36.6564 Y28.0829
G01 X36.7234 Y28.0333
G01 X36.7950 Y27.9904
G01 X36.8704 Y27.9547
G01 X36.9489 Y27.9266
G01 X37.0298 Y27.9063
G01 X37.1123 Y27.8941
G01 X37.1956 Y27.8900
G01 X37.2790 Y27.8941
G01 X37.3615 Y27.9063
G01 X37.4424 Y27.9266
G01 X37.5209 Y27.9547
G01 X37.5963 Y27.9904
G01 X37.6679 Y28.0333
G01 X37.7349 Y28.0829
G01 X37.7967 Y28.1390
G01 X37.8527 Y28.2008
G01 X37.9024 Y28.2678
G01 X37.9453 Y28.3393
G01 X37.9809 Y28.4147
G01 X38.0090 Y28.4933
G01 X38.0293 Y28.5742
G01 X38.0416 Y28.6567
G01 X38.0456 Y28.7400
G01 X38.0416 Y28.8233
G01 X38.0293 Y28.9058
G01 X38.0090 Y28.9867
G01 X37.9809 Y29.0653
G01 X37.9453 Y29.1407
G01 X37.9024 Y29.2122
G01 X37.8527 Y29.2792
G01 X37.7967 Y29.3410
G01 X37.7349 Y29.3971
G01 X37.6679 Y29.4467
G01 X37.5963 Y29.4896
G01 X37.5209 Y29.5253
G01 X37.4424 Y29.5534
G01 X37.3615 Y29.5737
G01 X37.2790 Y29.5859
G01 X37.1956 Y29.5900
G01 X37.1123 Y29.5859
G01 X37.0298 Y29.5737
G01 X36.9489 Y29.5534
G01 X36.8704 Y29.5253
G01 X36.7950 Y29.4896
G01 X36.7234 Y29.4467
G01 X36.6564 Y29.3971
G01 X36.5946 Y29.3410
G01 X36.5386 Y29.2792
G01 X36.4889 Y29.2122
G01 X36.4460 Y29.1407
G01 X36.4104 Y29.0653
G01 X36.3823 Y28.9867
G01 X36.3620 Y28.9058
G01 X36.3497 Y28.8233
G01 X36.3457 Y28.7425
G00 Z2.0000
G00 X36.3457 Y26.2025
G01 F60.00
G01 Z-0.1120
G01 F90.00
G01 X36.3497 Y26.1167
G01 X36.3620 Y26.0342
G01 X36.3823 Y25.9533
G01 X36.4104 Y25.8747
G01 X36.4460 Y25.7993
G01 X36.4889 Y25.7278
G01 X36.5386 Y25.6608
G01 X36.5946 Y25.5990
G01 X36.6564 Y25.5429
G01 X36.7234 Y25.4933
G01 X36.7950 Y25.4504
G01 X36.8704 Y25.4147
G01 X36.9489 Y25.3866
G01 X37.0298 Y25.3663
G01 X37.1123 Y25.3541
G01 X37.1956 Y25.3500
G01 X37.2790 Y25.3541
G01 X37.3615 Y25.3663
G01 X37.4424 Y25.3866
G01 X37.5209 Y25.4147
G01 X37.5963 Y25.4504
G01 X37.6679 Y25.4933
G01 X37.7349 Y25.5429
G01 X37.7967 Y25.5990
G01 X37.8527 Y25.6608
G01 X37.9024 Y25.7278
G01 X37.9453 Y25.7993
G01 X37.9809 Y25.8747
G01 X38.0090 Y25.9533
G01 X38.0293 Y26.0342
G01 X38.0416 Y26.1167
G01 X38.0456 Y26.2000
G01 X38.0416 Y26.2833
G01 X38.0293 Y26.3658
G01 X38.0090 Y26.4467
G01 X37.9809 Y26.5253
G01 X37.9453 Y26.6007
G01 X37.9024 Y26.6722
G01 X37.8527 Y26.7392
G01 X37.7967 Y26.8010
G01 X37.7349 Y26.8571
G01 X37.6679 Y26.9067
G01 X37.5963 Y26.9496
G01 X37.5209 Y26.9853
G01 X37.4424 Y27.0134
G01 X37.3615 Y27.0337
G01 X37.2790 Y27.0459
G01 X37.1956 Y27.0500
G01 X37.1123 Y27.0459
G01 X37.0298 Y27.0337
G01 X36.9489 Y27.0134
G01 X36.8704 Y26.9853
G01 X36.7950 Y26.9496
G01 X36.7234 Y26.9067
G01 X36.6564 Y26.8571
G01 X36.5946 Y26.8010
G01 X36.5386 Y26.7392
G01 X36.4889 Y26.6722
G01 X36.4460 Y26.6007
G01 X36.4104 Y26.5253
G01 X36.3823 Y26.4467
G01 X36.3620 Y26.3658
G01 X36.3497 Y26.2833
G01 X36.3457 Y26.2025
G00 Z2.0000
G00 X36.3457 Y23.6625
G01 F60.00
G01 Z-0.1120
G01 F90.00
G01 X36.3497 Y23.5767
G01 X36.3620 Y23.4942
G01 X36.3823 Y23.4133
G01 X36.4104 Y23.3347
G01 X36.4460 Y23.2593
G01 X36.4889 Y23.1878
G01 X36.5386 Y23.1208
G01 X36.5946 Y23.0590
G01 X36.6564 Y23.0029
G01 X36.7234 Y22.9533
G01 X36.7950 Y22.9104
G01 X36.8704 Y22.8747
G01 X36.9489 Y22.8466
G01 X37.0298 Y22.8263
G01 X37.1123 Y22.8141
G01 X37.1956 Y22.8100
G01 X37.2790 Y22.8141
G01 X37.3615 Y22.8263
G01 X37.4424 Y22.8466
G01 X37.5209 Y22.8747
G01 X37.5963 Y22.9104
G01 X37.6679 Y22.9533
G01 X37.7349 Y23.0029
G01 X37.7967 Y23.0590
G01 X37.8527 Y23.1208
G01 X37.9024 Y23.1878
G01 X37.9453 Y23.2593
G01 X37.9809 Y23.3347
G01 X38.0090 Y23.4133
G01 X38.0293 Y23.4942
G01 X38.0416 Y23.5767
G01 X38.0456 Y23.6600
G01 X38.0416 Y23.7433
G01 X38.0293 Y23.8258
G01 X38.0090 Y23.9067
G01 X37.9809 Y23.9853
G01 X37.9453 Y24.0607
G01 X37.9024 Y24.1322
G01 X37.8527 Y24.1992
G01 X37.7967 Y24.2610
G01 X37.7349 Y24.3171
G01 X37.6679 Y24.3667
G01 X37.5963 Y24.4096
G01 X37.5209 Y24.4453
G01 X37.4424 Y24.4734
G01 X37.3615 Y24.4937
G01 X37.2790 Y24.5059
G01 X37.1956 Y24.5100
G01 X37.1123 Y24.5059
G01 X37.0298 Y24.4937
G01 X36.9489 Y24.4734
G01 X36.8704 Y24.4453
G01 X36.7950 Y24.4096
G01 X36.7234 Y24.3667
G01 X36.6564 Y24.3171
G01 X36.5946 Y24.2610
G01 X36.5386 Y24.1992
G01 X36.4889 Y24.1322
G01 X36.4460 Y24.0607
G01 X36.4104 Y23.9853
G01 X36.3823 Y23.9067
G01 X36.3620 Y23.8258
G01 X36.3497 Y23.7433
G01 X36.3457 Y23.6625
G00 Z2.0000
G00 X36.3457 Y21.1225
G01 F60.00
G01 Z-0.1120
G01 F90.00
G01 X36.3497 Y21.0367
G01 X36.3620 Y20.9542
G01 X36.3823 Y20.8733
G01 X36.4104 Y20.7947
G01 X36.4460 Y20.7193
G01 X36.4889 Y20.6478
G01 X36.5386 Y20.5808
G01 X36.5946 Y20.5190
G01 X36.6564 Y20.4629
G01 X36.7234 Y20.4133
G01 X36.7950 Y20.3704
G01 X36.8704 Y20.3347
G01 X36.9489 Y20.3066
G01 X37.0298 Y20.2863
G01 X37.1123 Y20.2741
G01 X37.1956 Y20.2700
G01 X37.2790 Y20.2741
G01 X37.3615 Y20.2863
G01 X37.4424 Y20.3066
G01 X37.5209 Y20.3347
G01 X37.5963 Y20.3704
G01 X37.6679 Y20.4133
G01 X37.7349 Y20.4629
G01 X37.7967 Y20.5190
G01 X37.8527 Y20.5808
G01 X37.9024 Y20.6478
G01 X37.9453 Y20.7193
G01 X37.9809 Y20.7947
G01 X38.0090 Y20.8733
G01 X38.0293 Y20.9542
G01 X38.0416 Y21.0367
G01 X38.0456 Y21.1200
G01 X38.0416 Y21.2033
G01 X38.0293 Y21.2858
G01 X38.0090 Y21.3667
G01 X37.9809 Y21.4453
G01 X37.9453 Y21.5207
G01 X37.9024 Y21.5922
G01 X37.8527 Y21.6592
G01 X37.7967 Y21.7210
G01 X37.7349 Y21.7771
G01 X37.6679 Y21.8267
G01 X37.5963 Y21.8696
G01 X37.5209 Y21.9053
G01 X37.4424 Y21.9334
G01 X37.3615 Y21.9537
G01 X37.2790 Y21.9659
G01 X37.1956 Y21.9700
G01 X37.1123 Y21.9659
G01 X37.0298 Y21.9537
G01 X36.9489 Y21.9334
G01 X36.8704 Y21.9053
G01 X36.7950 Y21.8696
G01 X36.7234 Y21.8267
G01 X36.6564 Y21.7771
G01 X36.5946 Y21.7210
G01 X36.5386 Y21.6592
G01 X36.4889 Y21.5922
G01 X36.4460 Y21.5207
G01 X36.4104 Y21.4453
G01 X36.3823 Y21.3667
G01 X36.3620 Y21.2858
G01 X36.3497 Y21.2033
G01 X36.3457 Y21.1225
G00 Z2.0000
G00 X36.3457 Y18.5825
G01 F60.00
G01 Z-0.1120
G01 F90.00
G01 X36.3497 Y18.4967
G01 X36.3620 Y18.4142
G01 X36.3823 Y18.3333
G01 X36.4104 Y18.2547
G01 X36.4460 Y18.1793
G01 X36.4889 Y18.1078
G01 X36.5386 Y18.0408
G01 X36.5946 Y17.9790
G01 X36.6564 Y17.9229
G01 X36.7234 Y17.8733
G01 X36.7950 Y17.8304
G01 X36.8704 Y17.7947
G01 X36.9489 Y17.7666
G01 X37.0298 Y17.7463
G01 X37.1123 Y17.7341
G01 X37.1956 Y17.7300
G01 X37.2790 Y17.7341
G01 X37.3615 Y17.7463
G01 X37.4424 Y17.7666
G01 X37.5209 Y17.7947
G01 X37.5963 Y17.8304
G01 X37.6679 Y17.8733
G01 X37.7349 Y17.9229
G01 X37.7967 Y17.9790
G01 X37.8527 Y18.0408
G01 X37.9024 Y18.1078
G01 X37.9453 Y18.1793
G01 X37.9809 Y18.2547
G01 X38.0090 Y18.3333
G01 X38.0293 Y18.4142
G01 X38.0416 Y18.4967
G01 X38.0456 Y18.5800
G01 X38.0416 Y18.6633
G01 X38.0293 Y18.7458
G01 X38.0090 Y18.8267
G01 X37.9809 Y18.9053
G01 X37.9453 Y18.9807
G01 X37.9024 Y19.0522
G01 X37.8527 Y19.1192
G01 X37.7967 Y19.1810
G01 X37.7349 Y19.2371
G01 X37.6679 Y19.2867
G01 X37.5963 Y19.3296
G01 X37.5209 Y19.3653
G01 X37.4424 Y19.3934
G01 X37.3615 Y19.4137
G01 X37.2790 Y19.4259
G01 X37.1956 Y19.4300
G01 X37.1123 Y19.4259
G01 X37.0298 Y19.4137
G01 X36.9489 Y19.3934
G01 X36.8704 Y19.3653
G01 X36.7950 Y19.3296
G01 X36.7234 Y19.2867
G01 X36.6564 Y19.2371
G01 X36.5946 Y19.1810
G01 X36.5386 Y19.1192
G01 X36.4889 Y19.0522
G01 X36.4460 Y18.9807
G01 X36.4104 Y18.9053
G01 X36.3823 Y18.8267
G01 X36.3620 Y18.7458
G01 X36.3497 Y18.6633
G01 X36.3457 Y18.5825
G00 Z2.0000
G00 X36.3457 Y16.0425
G01 F60.00
G01 Z-0.1120
G01 F90.00
G01 X36.3497 Y15.9567
G01 X36.3620 Y15.8742
G01 X36.3823 Y15.7933
G01 X36.4104 Y15.7147
G01 X36.4460 Y15.6393
G01 X36.4889 Y15.5678
G01 X36.5386 Y15.5008
G01 X36.5946 Y15.4390
G01 X36.6564 Y15.3829
G01 X36.7234 Y15.3333
G01 X36.7950 Y15.2904
G01 X36.8704 Y15.2547
G01 X36.9489 Y15.2266
G01 X37.0298 Y15.2063
G01 X37.1123 Y15.1941
G01 X37.1956 Y15.1900
G01 X37.2790 Y15.1941
G01 X37.3615 Y15.2063
G01 X37.4424 Y15.2266
G01 X37.5209 Y15.2547
G01 X37.5963 Y15.2904
G01 X37.6679 Y15.3333
G01 X37.7349 Y15.3829
G01 X37.7967 Y15.4390
G01 X37.8527 Y15.5008
G01 X37.9024 Y15.5678
G01 X37.9453 Y15.6393
G01 X37.9809 Y15.7147
G01 X38.0090 Y15.7933
G01 X38.0293 Y15.8742
G01 X38.0416 Y15.9567
G01 X38.0456 Y16.0400
G01 X38.0416 Y16.1233
G01 X38.0293 Y16.2058
G01 X38.0090 Y16.2867
G01 X37.9809 Y16.3653
G01 X37.9453 Y16.4407
G01 X37.9024 Y16.5122
G01 X37.8527 Y16.5792
G01 X37.7967 Y16.6410
G01 X37.7349 Y16.6971
G01 X37.6679 Y16.7467
G01 X37.5963 Y16.7896
G01 X37.5209 Y16.8253
G01 X37.4424 Y16.8534
G01 X37.3615 Y16.8737
G01 X37.2790 Y16.8859
G01 X37.1956 Y16.8900
G01 X37.1123 Y16.8859
G01 X37.0298 Y16.8737
G01 X36.9489 Y16.8534
G01 X36.8704 Y16.8253
G01 X36.7950 Y16.7896
G01 X36.7234 Y16.7467
G01 X36.6564 Y16.6971
G01 X36.5946 Y16.6410
G01 X36.5386 Y16.5792
G01 X36.4889 Y16.5122
G01 X36.4460 Y16.4407
G01 X36.4104 Y16.3653
G01 X36.3823 Y16.2867
G01 X36.3620 Y16.2058
G01 X36.3497 Y16.1233
G01 X36.3457 Y16.0425
G00 Z2.0000
G00 X36.3457 Y13.5025
G01 F60.00
G01 Z-0.1120
G01 F90.00
G01 X36.3497 Y13.4167
G01 X36.3620 Y13.3342
G01 X36.3823 Y13.2533
G01 X36.4104 Y13.1747
G01 X36.4460 Y13.0993
G01 X36.4889 Y13.0278
G01 X36.5386 Y12.9608
G01 X36.5946 Y12.8990
G01 X36.6564 Y12.8429
G01 X36.7234 Y12.7933
G01 X36.7950 Y12.7504
G01 X36.8704 Y12.7147
G01 X36.9489 Y12.6866
G01 X37.0298 Y12.6663
G01 X37.1123 Y12.6541
G01 X37.1956 Y12.6500
G01 X37.2790 Y12.6541
G01 X37.3615 Y12.6663
G01 X37.4424 Y12.6866
G01 X37.5209 Y12.7147
G01 X37.5963 Y12.7504
G01 X37.6679 Y12.7933
G01 X37.7349 Y12.8429
G01 X37.7967 Y12.8990
G01 X37.8527 Y12.9608
G01 X37.9024 Y13.0278
G01 X37.9453 Y13.0993
G01 X37.9809 Y13.1747
G01 X38.0090 Y13.2533
G01 X38.0293 Y13.3342
G01 X38.0416 Y13.4167
G01 X38.0456 Y13.5000
G01 X38.0416 Y13.5833
G01 X38.0293 Y13.6658
G01 X38.0090 Y13.7467
G01 X37.9809 Y13.8253
G01 X37.9453 Y13.9007
G01 X37.9024 Y13.9722
G01 X37.8527 Y14.0392
G01 X37.7967 Y14.1010
G01 X37.7349 Y14.1571
G01 X37.6679 Y14.2067
G01 X37.5963 Y14.2496
G01 X37.5209 Y14.2853
G01 X37.4424 Y14.3134
G01 X37.3615 Y14.3337
G01 X37.2790 Y14.3459
G01 X37.1956 Y14.3500
G01 X37.1123 Y14.3459
G01 X37.0298 Y14.3337
G01 X36.9489 Y14.3134
G01 X36.8704 Y14.2853
G01 X36.7950 Y14.2496
G01 X36.7234 Y14.2067
G01 X36.6564 Y14.1571
G01 X36.5946 Y14.1010
G01 X36.5386 Y14.0392
G01 X36.4889 Y13.9722
G01 X36.4460 Y13.9007
G01 X36.4104 Y13.8253
G01 X36.3823 Y13.7467
G01 X36.3620 Y13.6658
G01 X36.3497 Y13.5833
G01 X36.3457 Y13.5025
G00 Z2.0000
G00 X36.3457 Y10.9625
G01 F60.00
G01 Z-0.1120
G01 F90.00
G01 X36.3497 Y10.8767
G01 X36.3620 Y10.7942
G01 X36.3823 Y10.7133
G01 X36.4104 Y10.6347
G01 X36.4460 Y10.5593
G01 X36.4889 Y10.4878
G01 X36.5386 Y10.4208
G01 X36.5946 Y10.3590
G01 X36.6564 Y10.3029
G01 X36.7234 Y10.2533
G01 X36.7950 Y10.2104
G01 X36.8704 Y10.1747
G01 X36.9489 Y10.1466
G01 X37.0298 Y10.1263
G01 X37.1123 Y10.1141
G01 X37.1956 Y10.1100
G01 X37.2790 Y10.1141
G01 X37.3615 Y10.1263
G01 X37.4424 Y10.1466
G01 X37.5209 Y10.1747
G01 X37.5963 Y10.2104
G01 X37.6679 Y10.2533
G01 X37.7349 Y10.3029
G01 X37.7967 Y10.3590
G01 X37.8527 Y10.4208
G01 X37.9024 Y10.4878
G01 X37.9453 Y10.5593
G01 X37.9809 Y10.6347
G01 X38.0090 Y10.7133
G01 X38.0293 Y10.7942
G01 X38.0416 Y10.8767
G01 X38.0456 Y10.9600
G01 X38.0416 Y11.0433
G01 X38.0293 Y11.1258
G01 X38.0090 Y11.2067
G01 X37.9809 Y11.2853
G01 X37.9453 Y11.3607
G01 X37.9024 Y11.4322
G01 X37.8527 Y11.4992
G01 X37.7967 Y11.5610
G01 X37.7349 Y11.6171
G01 X37.6679 Y11.6667
G01 X37.5963 Y11.7096
G01 X37.5209 Y11.7453
G01 X37.4424 Y11.7734
G01 X37.3615 Y11.7937
G01 X37.2790 Y11.8059
G01 X37.1956 Y11.8100
G01 X37.1123 Y11.8059
G01 X37.0298 Y11.7937
G01 X36.9489 Y11.7734
G01 X36.8704 Y11.7453
G01 X36.7950 Y11.7096
G01 X36.7234 Y11.6667
G01 X36.6564 Y11.6171
G01 X36.5946 Y11.5610
G01 X36.5386 Y11.4992
G01 X36.4889 Y11.4322
G01 X36.4460 Y11.3607
G01 X36.4104 Y11.2853
G01 X36.3823 Y11.2067
G01 X36.3620 Y11.1258
G01 X36.3497 Y11.0433
G01 X36.3457 Y10.9625
G00 Z2.0000
G00 X36.3457 Y5.8825
G01 F60.00
G01 Z-0.1120
G01 F90.00
G01 X36.3497 Y5.7967
G01 X36.3620 Y5.7142
G01 X36.3823 Y5.6333
G01 X36.4104 Y5.5547
G01 X36.4460 Y5.4793
G01 X36.4889 Y5.4078
G01 X36.5386 Y5.3408
G01 X36.5946 Y5.2790
G01 X36.6564 Y5.2229
G01 X36.7234 Y5.1733
G01 X36.7950 Y5.1304
G01 X36.8704 Y5.0947
G01 X36.9489 Y5.0666
G01 X37.0298 Y5.0463
G01 X37.1123 Y5.0341
G01 X37.1956 Y5.0300
G01 X37.2790 Y5.0341
G01 X37.3615 Y5.0463
G01 X37.4424 Y5.0666
G01 X37.5209 Y5.0947
G01 X37.5963 Y5.1304
G01 X37.6679 Y5.1733
G01 X37.7349 Y5.2229
G01 X37.7967 Y5.2790
G01 X37.8527 Y5.3408
G01 X37.9024 Y5.4078
G01 X37.9453 Y5.4793
G01 X37.9809 Y5.5547
G01 X38.0090 Y5.6333
G01 X38.0293 Y5.7142
G01 X38.0416 Y5.7967
G01 X38.0456 Y5.8800
G01 X38.0416 Y5.9633
G01 X38.0293 Y6.0458
G01 X38.0090 Y6.1267
G01 X37.9809 Y6.2053
G01 X37.9453 Y6.2807
G01 X37.9024 Y6.3522
G01 X37.8527 Y6.4192
G01 X37.7967 Y6.4810
G01 X37.7349 Y6.5371
G01 X37.6679 Y6.5867
G01 X37.5963 Y6.6296
G01 X37.5209 Y6.6653
G01 X37.4424 Y6.6934
G01 X37.3615 Y6.7137
G01 X37.2790 Y6.7259
G01 X37.1956 Y6.7300
G01 X37.1123 Y6.7259
G01 X37.0298 Y6.7137
G01 X36.9489 Y6.6934
G01 X36.8704 Y6.6653
G01 X36.7950 Y6.6296
G01 X36.7234 Y6.5867
G01 X36.6564 Y6.5371
G01 X36.5946 Y6.4810
G01 X36.5386 Y6.4192
G01 X36.4889 Y6.3522
G01 X36.4460 Y6.2807
G01 X36.4104 Y6.2053
G01 X36.3823 Y6.1267
G01 X36.3620 Y6.0458
G01 X36.3497 Y5.9633
G01 X36.3457 Y5.8825
G00 Z2.0000
G00 X37.9956 Y-0.0500
G01 F60.00
G01 Z-0.1120
G01 F90.00
G01 X38.0054 Y-0.0490
G01 X38.0148 Y-0.0462
G01 X38.0234 Y-0.0416
G01 X38.0310 Y-0.0354
G01 X38.0372 Y-0.0278
G01 X38.0418 Y-0.0191
G01 X38.0447 Y-0.0098
G01 X38.0456 Y-0.0012
G01 X38.0456 Y1.6000
G01 X38.0447 Y1.6098
G01 X38.0418 Y1.6191
G01 X38.0372 Y1.6278
G01 X38.0319 Y1.6345
G01 X38.0283 Y1.6379
G01 X38.0234 Y1.6416
G01 X38.0148 Y1.6462
G01 X38.0054 Y1.6490
G01 X37.9956 Y1.6500
G01 X36.3957 Y1.6500
G01 X36.3859 Y1.6490
G01 X36.3777 Y1.6466
G01 X36.3689 Y1.6422
G01 X36.3612 Y1.6362
G01 X36.3548 Y1.6288
G01 X36.3499 Y1.6203
G01 X36.3478 Y1.6145
G01 X36.3466 Y1.6098
G01 X36.3457 Y1.6000
G01 X36.3457 Y0.0000
G01 X36.3466 Y-0.0098
G01 X36.3495 Y-0.0191
G01 X36.3541 Y-0.0278
G01 X36.3594 Y-0.0345
G01 X36.3669 Y-0.0409
G01 X36.3710 Y-0.0435
G01 X36.3765 Y-0.0462
G01 X36.3859 Y-0.0490
G01 X36.3956 Y-0.0500
G01 X37.9956 Y-0.0500
G00 Z2.0000
G00 X49.2898 Y4.4819
G01 F60.00
G01 Z-0.1120
G01 F90.00
G01 X48.4480 Y3.6401
G01 X37.9900 Y3.6401
G01 X37.9805 Y3.6664
G01 X37.9447 Y3.7418
G01 X37.9024 Y3.8122
G01 X37.8535 Y3.8783
G01 X37.7967 Y3.9410
G01 X37.7367 Y3.9955
G01 X37.6669 Y4.0474
G01 X37.5963 Y4.0896
G01 X37.5209 Y4.1253
G01 X37.4424 Y4.1534
G01 X37.3639 Y4.1731
G01 X37.2765 Y4.1861
G01 X37.1956 Y4.1900
G01 X37.1123 Y4.1859
G01 X37.0298 Y4.1737
G01 X36.9489 Y4.1534
G01 X36.8704 Y4.1253
G01 X36.7950 Y4.0896
G01 X36.7234 Y4.0467
G01 X36.6564 Y3.9971
G01 X36.5946 Y3.9410
G01 X36.5386 Y3.8792
G01 X36.4889 Y3.8122
G01 X36.4460 Y3.7407
G01 X36.4104 Y3.6653
G01 X36.3823 Y3.5867
G01 X36.3620 Y3.5058
G01 X36.3497 Y3.4233
G01 X36.3457 Y3.3400
G01 X36.3497 Y3.2567
G01 X36.3620 Y3.1742
G01 X36.3823 Y3.0933
G01 X36.4104 Y3.0147
G01 X36.4449 Y2.9415
G01 X36.4903 Y2.8658
G01 X36.5386 Y2.8008
G01 X36.5964 Y2.7373
G01 X36.6564 Y2.6829
G01 X36.7234 Y2.6333
G01 X36.7950 Y2.5904
G01 X36.8704 Y2.5547
G01 X36.9489 Y2.5266
G01 X37.0298 Y2.5063
G01 X37.1123 Y2.4941
G01 X37.1944 Y2.4900
G01 X37.2814 Y2.4944
G01 X37.3615 Y2.5063
G01 X37.4424 Y2.5266
G01 X37.5209 Y2.5547
G01 X37.5941 Y2.5893
G01 X37.6689 Y2.6339
G01 X37.7349 Y2.6829
G01 X37.7949 Y2.7373
G01 X37.8535 Y2.8017
G01 X37.9024 Y2.8678
G01 X37.9447 Y2.9382
G01 X37.9805 Y3.0136
G01 X37.9900 Y3.0399
G01 X48.5723 Y3.0399
G01 X48.6005 Y3.0412
G01 X48.6309 Y3.0456
G01 X48.6571 Y3.0521
G01 X48.6894 Y3.0637
G01 X48.7138 Y3.0753
G01 X48.7391 Y3.0905
G01 X48.7627 Y3.1080
G01 X48.7828 Y3.1261
G01 X49.8127 Y4.1559
G01 X49.8860 Y4.1451
G01 X49.9693 Y4.1410
G01 X50.0526 Y4.1451
G01 X50.1260 Y4.1559
G01 X50.1390 Y4.1429
G01 X50.1590 Y4.1248
G01 X50.1826 Y4.1071
G01 X50.2088 Y4.0913
G01 X50.2343 Y4.0792
G01 X50.2632 Y4.0688
G01 X50.2918 Y4.0616
G01 X50.3209 Y4.0573
G01 X50.3503 Y4.0559
G01 X63.9069 Y4.0559
G01 X63.9165 Y4.0296
G01 X63.9523 Y3.9542
G01 X63.9946 Y3.8838
G01 X64.0435 Y3.8177
G01 X64.1020 Y3.7533
G01 X64.1621 Y3.6989
G01 X64.2301 Y3.6486
G01 X64.3006 Y3.6064
G01 X64.3760 Y3.5707
G01 X64.4546 Y3.5426
G01 X64.5331 Y3.5229
G01 X64.6204 Y3.5099
G01 X64.7013 Y3.5060
G01 X64.7834 Y3.5100
G01 X64.8695 Y3.5229
G01 X64.9481 Y3.5426
G01 X65.0266 Y3.5707
G01 X65.1041 Y3.6076
G01 X65.1735 Y3.6493
G01 X65.2396 Y3.6982
G01 X65.3040 Y3.7567
G01 X65.3584 Y3.8168
G01 X65.4074 Y3.8828
G01 X65.4515 Y3.9564
G01 X65.4861 Y4.0296
G01 X65.4957 Y4.0559
G01 X67.8039 Y4.0559
G01 X67.8321 Y4.0573
G01 X67.8636 Y4.0622
G01 X67.8898 Y4.0688
G01 X67.9152 Y4.0778
G01 X67.9430 Y4.0907
G01 X67.9714 Y4.1079
G01 X67.9930 Y4.1240
G01 X68.0149 Y4.1438
G01 X69.9199 Y6.0488
G01 X69.9396 Y6.0706
G01 X69.9558 Y6.0923
G01 X69.9729 Y6.1206
G01 X69.9858 Y6.1484
G01 X69.9949 Y6.1739
G01 X70.0015 Y6.2001
G01 X70.0063 Y6.2316
G01 X70.0078 Y6.2610
G01 X70.0078 Y28.1050
G01 X70.0063 Y28.1344
G01 X70.0022 Y28.1623
G01 X69.9941 Y28.1945
G01 X69.9849 Y28.2199
G01 X69.9723 Y28.2465
G01 X69.9572 Y28.2717
G01 X69.9412 Y28.2935
G01 X69.9199 Y28.3172
G01 X68.2689 Y29.9682
G01 X68.2470 Y29.9880
G01 X68.2234 Y30.0055
G01 X68.1981 Y30.0207
G01 X68.1737 Y30.0323
G01 X68.1438 Y30.0432
G01 X68.1152 Y30.0504
G01 X68.0861 Y30.0547
G01 X68.0566 Y30.0561
G01 X65.3687 Y30.0561
G01 X65.3591 Y30.0824
G01 X65.3245 Y30.1556
G01 X65.2817 Y30.2272
G01 X65.2314 Y30.2952
G01 X65.1754 Y30.3570
G01 X65.1135 Y30.4131
G01 X65.0455 Y30.4634
G01 X64.9739 Y30.5062
G01 X64.9007 Y30.5408
G01 X64.8744 Y30.5504
G01 X64.8744 Y31.5016
G01 X64.9007 Y31.5112
G01 X64.9761 Y31.5470
G01 X65.0465 Y31.5893
G01 X65.1126 Y31.6382
G01 X65.1770 Y31.6967
G01 X65.2314 Y31.7568
G01 X65.2804 Y31.8228
G01 X65.3250 Y31.8975
G01 X65.3596 Y31.9707
G01 X65.3877 Y32.0493
G01 X65.4084 Y32.1326
G01 X65.4202 Y32.2127
G01 X65.4243 Y32.2948
G01 X65.4199 Y32.3818
G01 X65.4080 Y32.4618
G01 X65.3877 Y32.5427
G01 X65.3596 Y32.6213
G01 X65.3250 Y32.6945
G01 X65.2804 Y32.7692
G01 X65.2314 Y32.8352
G01 X65.1770 Y32.8953
G01 X65.1126 Y32.9538
G01 X65.0465 Y33.0027
G01 X64.9761 Y33.0450
G01 X64.9007 Y33.0808
G01 X64.8744 Y33.0904
G01 X64.8744 Y34.0416
G01 X64.9007 Y34.0512
G01 X64.9761 Y34.0870
G01 X65.0465 Y34.1293
G01 X65.1126 Y34.1782
G01 X65.1770 Y34.2367
G01 X65.2314 Y34.2968
G01 X65.2804 Y34.3628
G01 X65.3250 Y34.4375
G01 X65.3596 Y34.5107
G01 X65.3877 Y34.5893
G01 X65.4084 Y34.6726
G01 X65.4202 Y34.7527
G01 X65.4242 Y34.8335
G01 X65.4202 Y34.9193
G01 X65.4074 Y35.0042
G01 X65.3877 Y35.0827
G01 X65.3605 Y35.1590
G01 X65.3227 Y35.2388
G01 X65.2811 Y35.3082
G01 X65.2329 Y35.3733
G01 X65.1754 Y35.4370
G01 X65.1135 Y35.4931
G01 X65.0486 Y35.5413
G01 X64.9739 Y35.5862
G01 X64.8973 Y35.6222
G01 X64.8211 Y35.6494
G01 X64.7425 Y35.6691
G01 X64.6576 Y35.6819
G01 X64.5743 Y35.6860
G01 X64.4910 Y35.6819
G01 X64.4061 Y35.6691
G01 X64.3252 Y35.6486
G01 X64.2490 Y35.6213
G01 X64.1758 Y35.5867
G01 X64.1021 Y35.5427
G01 X64.0351 Y35.4931
G01 X63.9733 Y35.4370
G01 X63.9157 Y35.3733
G01 X63.8676 Y35.3082
G01 X63.8259 Y35.2388
G01 X63.7900 Y35.1635
G01 X63.7609 Y35.0827
G01 X63.7404 Y35.0006
G01 X63.7284 Y34.9193
G01 X63.7243 Y34.8360
G01 X63.7284 Y34.7527
G01 X63.7402 Y34.6726
G01 X63.7617 Y34.5869
G01 X63.7890 Y34.5107
G01 X63.8253 Y34.4342
G01 X63.8676 Y34.3638
G01 X63.9173 Y34.2968
G01 X63.9733 Y34.2350
G01 X64.0341 Y34.1797
G01 X64.1021 Y34.1293
G01 X64.1725 Y34.0870
G01 X64.2479 Y34.0512
G01 X64.2742 Y34.0416
G01 X64.2742 Y33.0904
G01 X64.2479 Y33.0808
G01 X64.1747 Y33.0462
G01 X64.1011 Y33.0021
G01 X64.0351 Y32.9531
G01 X63.9750 Y32.8987
G01 X63.9165 Y32.8343
G01 X63.8676 Y32.7682
G01 X63.8259 Y32.6988
G01 X63.7890 Y32.6213
G01 X63.7603 Y32.5404
G01 X63.7406 Y32.4618
G01 X63.7284 Y32.3793
G01 X63.7243 Y32.2960
G01 X63.7282 Y32.2151
G01 X63.7412 Y32.1278
G01 X63.7609 Y32.0493
G01 X63.7890 Y31.9707
G01 X63.8247 Y31.8953
G01 X63.8669 Y31.8248
G01 X63.9173 Y31.7568
G01 X63.9716 Y31.6967
G01 X64.0360 Y31.6382
G01 X64.1021 Y31.5893
G01 X64.1725 Y31.5470
G01 X64.2479 Y31.5112
G01 X64.2742 Y31.5016
G01 X64.2742 Y30.5504
G01 X64.2479 Y30.5408
G01 X64.1747 Y30.5062
G01 X64.1011 Y30.4621
G01 X64.0332 Y30.4115
G01 X63.9733 Y30.3570
G01 X63.9180 Y30.2962
G01 X63.8676 Y30.2282
G01 X63.8236 Y30.1545
G01 X63.7890 Y30.0813
G01 X63.7617 Y30.0051
G01 X63.7406 Y29.9218
G01 X63.7284 Y29.8393
G01 X63.7243 Y29.7560
G01 X63.7284 Y29.6727
G01 X63.7402 Y29.5926
G01 X63.7609 Y29.5093
G01 X63.7881 Y29.4330
G01 X63.8259 Y29.3532
G01 X63.8676 Y29.2838
G01 X63.9157 Y29.2187
G01 X63.9733 Y29.1550
G01 X64.0370 Y29.0974
G01 X64.1021 Y29.0493
G01 X64.1715 Y29.0076
G01 X64.2490 Y28.9707
G01 X64.3299 Y28.9419
G01 X64.4085 Y28.9223
G01 X64.4886 Y28.9104
G01 X64.5755 Y28.9060
G01 X64.6576 Y28.9101
G01 X64.7377 Y28.9219
G01 X64.8211 Y28.9426
G01 X64.8996 Y28.9707
G01 X64.9728 Y29.0053
G01 X65.0476 Y29.0499
G01 X65.1135 Y29.0989
G01 X65.1736 Y29.1533
G01 X65.2321 Y29.2177
G01 X65.2811 Y29.2838
G01 X65.3234 Y29.3542
G01 X65.3591 Y29.4296
G01 X65.3687 Y29.4559
G01 X67.9323 Y29.4559
G01 X69.4075 Y27.9807
G01 X69.4075 Y6.3853
G01 X67.6783 Y4.6561
G01 X65.4957 Y4.6561
G01 X65.4861 Y4.6824
G01 X65.4504 Y4.7578
G01 X65.4081 Y4.8282
G01 X65.3591 Y4.8943
G01 X65.3006 Y4.9587
G01 X65.2405 Y5.0131
G01 X65.1746 Y5.0621
G01 X65.0998 Y5.1067
G01 X65.0266 Y5.1413
G01 X64.9481 Y5.1694
G01 X64.8647 Y5.1901
G01 X64.7846 Y5.2019
G01 X64.7013 Y5.2060
G01 X64.6156 Y5.2016
G01 X64.5355 Y5.1897
G01 X64.4546 Y5.1694
G01 X64.3760 Y5.1413
G01 X64.3028 Y5.1067
G01 X64.2281 Y5.0621
G01 X64.1621 Y5.0131
G01 X64.1020 Y4.9587
G01 X64.0435 Y4.8943
G01 X63.9946 Y4.8282
G01 X63.9523 Y4.7578
G01 X63.9165 Y4.6824
G01 X63.9069 Y4.6561
G01 X50.7501 Y4.6561
G01 X50.7555 Y4.6680
G01 X50.7827 Y4.7443
G01 X50.8034 Y4.8276
G01 X50.8152 Y4.9077
G01 X50.8192 Y4.9885
G01 X50.8152 Y5.0743
G01 X50.8030 Y5.1568
G01 X50.7819 Y5.2401
G01 X50.7546 Y5.3163
G01 X50.7200 Y5.3895
G01 X50.6761 Y5.4632
G01 X50.6248 Y5.5321
G01 X50.5704 Y5.5920
G01 X50.5104 Y5.6465
G01 X50.4415 Y5.6977
G01 X50.3700 Y5.7406
G01 X50.2923 Y5.7772
G01 X50.2161 Y5.8044
G01 X50.1375 Y5.8241
G01 X50.0526 Y5.8369
G01 X49.9693 Y5.8410
G01 X49.8836 Y5.8366
G01 X49.8035 Y5.8247
G01 X49.7226 Y5.8044
G01 X49.6418 Y5.7753
G01 X49.5686 Y5.7406
G01 X49.4991 Y5.6991
G01 X49.4301 Y5.6481
G01 X49.3666 Y5.5903
G01 X49.3123 Y5.5302
G01 X49.2640 Y5.4652
G01 X49.2191 Y5.3906
G01 X49.1840 Y5.3163
G01 X49.1567 Y5.2401
G01 X49.1356 Y5.1568
G01 X49.1232 Y5.0719
G01 X49.1193 Y4.9910
G01 X49.1233 Y4.9089
G01 X49.1362 Y4.8228
G01 X49.1559 Y4.7443
G01 X49.1836 Y4.6669
G01 X49.2203 Y4.5892
G01 X49.2619 Y4.5198
G01 X49.2898 Y4.4819
G00 Z2.0000
G00 X63.9205 Y7.2309
G01 F60.00
G01 Z-0.1120
G01 F90.00
G01 X63.9151 Y7.2190
G01 X63.8879 Y7.1427
G01 X63.8676 Y7.0618
G01 X63.8554 Y6.9793
G01 X63.8513 Y6.8960
G01 X63.8554 Y6.8127
G01 X63.8676 Y6.7302
G01 X63.8879 Y6.6493
G01 X63.9160 Y6.5707
G01 X63.9517 Y6.4953
G01 X63.9946 Y6.4238
G01 X64.0443 Y6.3568
G01 X64.1003 Y6.2950
G01 X64.1621 Y6.2389
G01 X64.2291 Y6.1893
G01 X64.3006 Y6.1464
G01 X64.3760 Y6.1107
G01 X64.4546 Y6.0826
G01 X64.5355 Y6.0623
G01 X64.6180 Y6.0501
G01 X64.7013 Y6.0460
G01 X64.7846 Y6.0501
G01 X64.8671 Y6.0623
G01 X64.9481 Y6.0826
G01 X65.0266 Y6.1107
G01 X65.1020 Y6.1464
G01 X65.1735 Y6.1893
G01 X65.2405 Y6.2389
G01 X65.3024 Y6.2950
G01 X65.3584 Y6.3568
G01 X65.4081 Y6.4238
G01 X65.4509 Y6.4953
G01 X65.4866 Y6.5707
G01 X65.5147 Y6.6493
G01 X65.5344 Y6.7278
G01 X65.5472 Y6.8127
G01 X65.5513 Y6.8960
G01 X65.5474 Y6.9769
G01 X65.5344 Y7.0642
G01 X65.5147 Y7.1427
G01 X65.4875 Y7.2190
G01 X65.4497 Y7.2988
G01 X65.4081 Y7.3682
G01 X65.3584 Y7.4352
G01 X65.3024 Y7.4970
G01 X65.2424 Y7.5515
G01 X65.1715 Y7.6041
G01 X65.1020 Y7.6456
G01 X65.0266 Y7.6813
G01 X64.9457 Y7.7101
G01 X64.8671 Y7.7297
G01 X64.7858 Y7.7418
G01 X64.6989 Y7.7459
G01 X64.6180 Y7.7419
G01 X64.5367 Y7.7299
G01 X64.4534 Y7.7090
G01 X64.3772 Y7.6818
G01 X64.3518 Y7.6699
G01 X64.2768 Y7.7449
G01 X64.2567 Y7.7630
G01 X64.2320 Y7.7812
G01 X64.2078 Y7.7957
G01 X64.1789 Y7.8092
G01 X64.1534 Y7.8182
G01 X64.1273 Y7.8248
G01 X64.0969 Y7.8295
G01 X64.0663 Y7.8311
G01 X50.7637 Y7.8311
G01 X50.7541 Y7.8574
G01 X50.7195 Y7.9306
G01 X50.6767 Y8.0022
G01 X50.6264 Y8.0702
G01 X50.5704 Y8.1320
G01 X50.5085 Y8.1881
G01 X50.4405 Y8.2384
G01 X50.3689 Y8.2812
G01 X50.2957 Y8.3158
G01 X50.2694 Y8.3254
G01 X50.2694 Y28.9616
G01 X50.2957 Y28.9712
G01 X50.3711 Y29.0070
G01 X50.4415 Y29.0493
G01 X50.5076 Y29.0982
G01 X50.5720 Y29.1567
G01 X50.6264 Y29.2168
G01 X50.6754 Y29.2828
G01 X50.7200 Y29.3575
G01 X50.7546 Y29.4307
G01 X50.7827 Y29.5093
G01 X50.8034 Y29.5926
G01 X50.8152 Y29.6727
G01 X50.8193 Y29.7560
G01 X50.8152 Y29.8393
G01 X50.8034 Y29.9194
G01 X50.7827 Y30.0027
G01 X50.7546 Y30.0813
G01 X50.7200 Y30.1545
G01 X50.6754 Y30.2292
G01 X50.6264 Y30.2952
G01 X50.5720 Y30.3553
G01 X50.5076 Y30.4138
G01 X50.4415 Y30.4627
G01 X50.3711 Y30.5050
G01 X50.2957 Y30.5408
G01 X50.2694 Y30.5504
G01 X50.2694 Y31.5016
G01 X50.2957 Y31.5112
G01 X50.3711 Y31.5470
G01 X50.4415 Y31.5893
G01 X50.5076 Y31.6382
G01 X50.5720 Y31.6967
G01 X50.6264 Y31.7568
G01 X50.6754 Y31.8228
G01 X50.7200 Y31.8975
G01 X50.7546 Y31.9707
G01 X50.7827 Y32.0493
G01 X50.8034 Y32.1326
G01 X50.8152 Y32.2127
G01 X50.8193 Y32.2960
G01 X50.8152 Y32.3793
G01 X50.8034 Y32.4594
G01 X50.7827 Y32.5427
G01 X50.7546 Y32.6213
G01 X50.7200 Y32.6945
G01 X50.6754 Y32.7692
G01 X50.6264 Y32.8352
G01 X50.5720 Y32.8953
G01 X50.5076 Y32.9538
G01 X50.4415 Y33.0027
G01 X50.3711 Y33.0450
G01 X50.2957 Y33.0808
G01 X50.2694 Y33.0904
G01 X50.2694 Y34.0416
G01 X50.2957 Y34.0512
G01 X50.3711 Y34.0870
G01 X50.4415 Y34.1293
G01 X50.5076 Y34.1782
G01 X50.5720 Y34.2367
G01 X50.6264 Y34.2968
G01 X50.6754 Y34.3628
G01 X50.7200 Y34.4375
G01 X50.7546 Y34.5107
G01 X50.7827 Y34.5893
G01 X50.8030 Y34.6702
G01 X50.8149 Y34.7502
G01 X50.8193 Y34.8372
G01 X50.8149 Y34.9218
G01 X50.8030 Y35.0018
G01 X50.7834 Y35.0804
G01 X50.7546 Y35.1613
G01 X50.7177 Y35.2388
G01 X50.6761 Y35.3082
G01 X50.6279 Y35.3733
G01 X50.5704 Y35.4370
G01 X50.5066 Y35.4946
G01 X50.4415 Y35.5427
G01 X50.3721 Y35.5844
G01 X50.2946 Y35.6213
G01 X50.2137 Y35.6501
G01 X50.1351 Y35.6697
G01 X50.0551 Y35.6816
G01 X49.9693 Y35.6860
G01 X49.8860 Y35.6819
G01 X49.8011 Y35.6691
G01 X49.7226 Y35.6494
G01 X49.6463 Y35.6222
G01 X49.5697 Y35.5862
G01 X49.4951 Y35.5413
G01 X49.4301 Y35.4931
G01 X49.3683 Y35.4370
G01 X49.3107 Y35.3733
G01 X49.2626 Y35.3082
G01 X49.2209 Y35.2388
G01 X49.1831 Y35.1590
G01 X49.1559 Y35.0827
G01 X49.1362 Y35.0042
G01 X49.1234 Y34.9193
G01 X49.1194 Y34.8335
G01 X49.1234 Y34.7527
G01 X49.1352 Y34.6726
G01 X49.1559 Y34.5893
G01 X49.1840 Y34.5107
G01 X49.2186 Y34.4375
G01 X49.2633 Y34.3628
G01 X49.3123 Y34.2968
G01 X49.3666 Y34.2367
G01 X49.4310 Y34.1782
G01 X49.4971 Y34.1293
G01 X49.5675 Y34.0870
G01 X49.6429 Y34.0512
G01 X49.6692 Y34.0416
G01 X49.6692 Y33.0904
G01 X49.6429 Y33.0808
G01 X49.5675 Y33.0450
G01 X49.4971 Y33.0027
G01 X49.4310 Y32.9538
G01 X49.3666 Y32.8953
G01 X49.3123 Y32.8352
G01 X49.2633 Y32.7692
G01 X49.2186 Y32.6945
G01 X49.1840 Y32.6213
G01 X49.1559 Y32.5427
G01 X49.1356 Y32.4618
G01 X49.1237 Y32.3818
G01 X49.1193 Y32.2948
G01 X49.1234 Y32.2127
G01 X49.1352 Y32.1326
G01 X49.1559 Y32.0493
G01 X49.1840 Y31.9707
G01 X49.2186 Y31.8975
G01 X49.2633 Y31.8228
G01 X49.3123 Y31.7568
G01 X49.3666 Y31.6967
G01 X49.4310 Y31.6382
G01 X49.4971 Y31.5893
G01 X49.5675 Y31.5470
G01 X49.6429 Y31.5112
G01 X49.6692 Y31.5016
G01 X49.6692 Y30.5504
G01 X49.6429 Y30.5408
G01 X49.5675 Y30.5050
G01 X49.4971 Y30.4627
G01 X49.4310 Y30.4138
G01 X49.3666 Y30.3553
G01 X49.3123 Y30.2952
G01 X49.2633 Y30.2292
G01 X49.2186 Y30.1545
G01 X49.1840 Y30.0813
G01 X49.1559 Y30.0027
G01 X49.1352 Y29.9194
G01 X49.1234 Y29.8393
G01 X49.1193 Y29.7560
G01 X49.1234 Y29.6727
G01 X49.1352 Y29.5926
G01 X49.1559 Y29.5093
G01 X49.1840 Y29.4307
G01 X49.2186 Y29.3575
G01 X49.2633 Y29.2828
G01 X49.3123 Y29.2168
G01 X49.3666 Y29.1567
G01 X49.4310 Y29.0982
G01 X49.4971 Y29.0493
G01 X49.5675 Y29.0070
G01 X49.6429 Y28.9712
G01 X49.6692 Y28.9616
G01 X49.6692 Y8.3254
G01 X49.6440 Y8.3163
G01 X49.6198 Y8.3049
G01 X49.2925 Y8.6322
G01 X49.2707 Y8.6520
G01 X49.2471 Y8.6695
G01 X49.2196 Y8.6858
G01 X49.1952 Y8.6973
G01 X49.1674 Y8.7072
G01 X49.1364 Y8.7148
G01 X49.1097 Y8.7187
G01 X49.0815 Y8.7201
G01 X37.9900 Y8.7201
G01 X37.9805 Y8.7464
G01 X37.9447 Y8.8218
G01 X37.9024 Y8.8922
G01 X37.8535 Y8.9583
G01 X37.7949 Y9.0227
G01 X37.7349 Y9.0771
G01 X37.6689 Y9.1261
G01 X37.5941 Y9.1707
G01 X37.5209 Y9.2053
G01 X37.4424 Y9.2334
G01 X37.3615 Y9.2537
G01 X37.2814 Y9.2656
G01 X37.1944 Y9.2700
G01 X37.1099 Y9.2656
G01 X37.0298 Y9.2537
G01 X36.9513 Y9.2341
G01 X36.8704 Y9.2053
G01 X36.7928 Y9.1684
G01 X36.7234 Y9.1267
G01 X36.6584 Y9.0786
G01 X36.5946 Y9.0210
G01 X36.5371 Y8.9573
G01 X36.4889 Y8.8922
G01 X36.4472 Y8.8228
G01 X36.4104 Y8.7453
G01 X36.3816 Y8.6644
G01 X36.3620 Y8.5858
G01 X36.3500 Y8.5058
G01 X36.3457 Y8.4200
G01 X36.3497 Y8.3367
G01 X36.3625 Y8.2518
G01 X36.3823 Y8.1733
G01 X36.4095 Y8.0970
G01 X36.4455 Y8.0204
G01 X36.4903 Y7.9458
G01 X36.5386 Y7.8808
G01 X36.5929 Y7.8207
G01 X36.6564 Y7.7629
G01 X36.7255 Y7.7119
G01 X36.7950 Y7.6704
G01 X36.8681 Y7.6357
G01 X36.9489 Y7.6066
G01 X37.0298 Y7.5863
G01 X37.1099 Y7.5744
G01 X37.1956 Y7.5700
G01 X37.2814 Y7.5744
G01 X37.3615 Y7.5863
G01 X37.4424 Y7.6066
G01 X37.5209 Y7.6347
G01 X37.5941 Y7.6693
G01 X37.6689 Y7.7139
G01 X37.7349 Y7.7629
G01 X37.7949 Y7.8173
G01 X37.8535 Y7.8817
G01 X37.9024 Y7.9478
G01 X37.9447 Y8.0182
G01 X37.9805 Y8.0936
G01 X37.9900 Y8.1199
G01 X48.9560 Y8.1199
G01 X49.1954 Y7.8805
G01 X49.1836 Y7.8551
G01 X49.1563 Y7.7789
G01 X49.1354 Y7.6956
G01 X49.1234 Y7.6143
G01 X49.1194 Y7.5335
G01 X49.1233 Y7.4489
G01 X49.1362 Y7.3628
G01 X49.1559 Y7.2843
G01 X49.1831 Y7.2080
G01 X49.2197 Y7.1303
G01 X49.2633 Y7.0578
G01 X49.3139 Y6.9899
G01 X49.3683 Y6.9300
G01 X49.4282 Y6.8755
G01 X49.4971 Y6.8243
G01 X49.5686 Y6.7814
G01 X49.6440 Y6.7457
G01 X49.7249 Y6.7169
G01 X49.8035 Y6.6973
G01 X49.8836 Y6.6854
G01 X49.9681 Y6.6810
G01 X50.0551 Y6.6854
G01 X50.1351 Y6.6973
G01 X50.2161 Y6.7176
G01 X50.2946 Y6.7457
G01 X50.3678 Y6.7803
G01 X50.4426 Y6.8249
G01 X50.5085 Y6.8739
G01 X50.5686 Y6.9283
G01 X50.6271 Y6.9927
G01 X50.6761 Y7.0588
G01 X50.7184 Y7.1292
G01 X50.7541 Y7.2046
G01 X50.7637 Y7.2309
G01 X63.9205 Y7.2309
G00 Z2.0000
G00 X22.7556 Y-0.0500
G01 F60.00
G01 Z-0.1120
G01 F90.00
G01 X22.7654 Y-0.0490
G01 X22.7748 Y-0.0462
G01 X22.7834 Y-0.0416
G01 X22.7910 Y-0.0354
G01 X22.7972 Y-0.0278
G01 X22.8014 Y-0.0203
G01 X22.8044 Y-0.0110
G01 X22.8056 Y-0.0012
G01 X22.8056 Y1.6000
G01 X22.8047 Y1.6098
G01 X22.8018 Y1.6191
G01 X22.7972 Y1.6278
G01 X22.7919 Y1.6345
G01 X22.7874 Y1.6387
G01 X22.7834 Y1.6416
G01 X22.7748 Y1.6462
G01 X22.7654 Y1.6490
G01 X22.7556 Y1.6500
G01 X21.1557 Y1.6500
G01 X21.1471 Y1.6493
G01 X21.1377 Y1.6466
G01 X21.1289 Y1.6422
G01 X21.1212 Y1.6362
G01 X21.1148 Y1.6288
G01 X21.1099 Y1.6203
G01 X21.1078 Y1.6145
G01 X21.1066 Y1.6098
G01 X21.1057 Y1.6000
G01 X21.1057 Y0.0000
G01 X21.1064 Y-0.0085
G01 X21.1090 Y-0.0180
G01 X21.1134 Y-0.0267
G01 X21.1194 Y-0.0345
G01 X21.1269 Y-0.0409
G01 X21.1321 Y-0.0441
G01 X21.1365 Y-0.0462
G01 X21.1459 Y-0.0490
G01 X21.1556 Y-0.0500
G01 X22.7556 Y-0.0500
G00 Z2.0000
G00 X1.8859 Y29.0401
G01 F60.00
G01 Z-0.1120
G01 F90.00
G01 X1.8674 Y29.1137
G01 X1.8393 Y29.1923
G01 X1.8036 Y29.2677
G01 X1.7607 Y29.3392
G01 X1.7111 Y29.4062
G01 X1.6550 Y29.4680
G01 X1.5932 Y29.5241
G01 X1.5262 Y29.5737
G01 X1.4547 Y29.6166
G01 X1.3793 Y29.6523
G01 X1.3007 Y29.6804
G01 X1.2198 Y29.7007
G01 X1.1373 Y29.7129
G01 X1.0540 Y29.7170
G01 X0.9707 Y29.7129
G01 X0.8882 Y29.7007
G01 X0.8073 Y29.6804
G01 X0.7287 Y29.6523
G01 X0.6533 Y29.6166
G01 X0.5818 Y29.5737
G01 X0.5148 Y29.5241
G01 X0.4530 Y29.4680
G01 X0.3969 Y29.4062
G01 X0.3473 Y29.3392
G01 X0.3044 Y29.2677
G01 X0.2687 Y29.1923
G01 X0.2406 Y29.1137
G01 X0.2203 Y29.0328
G01 X0.2081 Y28.9503
G01 X0.2040 Y28.8670
G01 X0.2081 Y28.7837
G01 X0.2203 Y28.7012
G01 X0.2406 Y28.6203
G01 X0.2678 Y28.5440
G01 X0.3056 Y28.4642
G01 X0.3473 Y28.3948
G01 X0.3969 Y28.3278
G01 X0.4530 Y28.2660
G01 X0.5148 Y28.2099
G01 X0.5818 Y28.1603
G01 X0.6512 Y28.1186
G01 X0.7310 Y28.0808
G01 X0.8073 Y28.0536
G01 X0.8882 Y28.0333
G01 X0.9707 Y28.0211
G01 X1.0515 Y28.0171
G01 X1.1373 Y28.0211
G01 X1.2222 Y28.0339
G01 X1.3007 Y28.0536
G01 X1.3770 Y28.0808
G01 X1.4558 Y28.1180
G01 X1.5282 Y28.1617
G01 X1.5932 Y28.2099
G01 X1.6542 Y28.2651
G01 X1.7118 Y28.3287
G01 X1.7607 Y28.3948
G01 X1.7879 Y28.4399
G01 X21.1613 Y28.4399
G01 X21.1708 Y28.4136
G01 X21.2066 Y28.3382
G01 X21.2489 Y28.2678
G01 X21.2978 Y28.2017
G01 X21.3564 Y28.1373
G01 X21.4164 Y28.0829
G01 X21.4824 Y28.0339
G01 X21.5572 Y27.9893
G01 X21.6304 Y27.9547
G01 X21.7089 Y27.9266
G01 X21.7898 Y27.9063
G01 X21.8699 Y27.8944
G01 X21.9556 Y27.8900
G01 X22.0390 Y27.8941
G01 X22.1215 Y27.9063
G01 X22.2024 Y27.9266
G01 X22.2809 Y27.9547
G01 X22.3563 Y27.9904
G01 X22.4279 Y28.0333
G01 X22.4949 Y28.0829
G01 X22.5567 Y28.1390
G01 X22.6127 Y28.2008
G01 X22.6624 Y28.2678
G01 X22.7053 Y28.3393
G01 X22.7409 Y28.4147
G01 X22.7690 Y28.4933
G01 X22.7893 Y28.5742
G01 X22.8016 Y28.6567
G01 X22.8056 Y28.7388
G01 X22.8016 Y28.8233
G01 X22.7893 Y28.9058
G01 X22.7690 Y28.9867
G01 X22.7409 Y29.0653
G01 X22.7053 Y29.1407
G01 X22.6624 Y29.2122
G01 X22.6127 Y29.2792
G01 X22.5567 Y29.3410
G01 X22.4949 Y29.3971
G01 X22.4279 Y29.4467
G01 X22.3563 Y29.4896
G01 X22.2809 Y29.5253
G01 X22.2024 Y29.5534
G01 X22.1215 Y29.5737
G01 X22.0390 Y29.5859
G01 X21.9569 Y29.5900
G01 X21.8699 Y29.5856
G01 X21.7898 Y29.5737
G01 X21.7089 Y29.5534
G01 X21.6304 Y29.5253
G01 X21.5572 Y29.4907
G01 X21.4824 Y29.4461
G01 X21.4164 Y29.3971
G01 X21.3564 Y29.3427
G01 X21.2978 Y29.2783
G01 X21.2489 Y29.2122
G01 X21.2066 Y29.1418
G01 X21.1708 Y29.0664
G01 X21.1613 Y29.0401
G01 X1.8859 Y29.0401
G00 Z2.0000
G00 X1.8859 Y31.5801
G01 F60.00
G01 Z-0.1120
G01 F90.00
G01 X1.8674 Y31.6537
G01 X1.8393 Y31.7323
G01 X1.8036 Y31.8077
G01 X1.7607 Y31.8792
G01 X1.7111 Y31.9462
G01 X1.6550 Y32.0080
G01 X1.5932 Y32.0641
G01 X1.5262 Y32.1137
G01 X1.4547 Y32.1566
G01 X1.3793 Y32.1923
G01 X1.3007 Y32.2204
G01 X1.2198 Y32.2407
G01 X1.1373 Y32.2529
G01 X1.0540 Y32.2570
G01 X0.9707 Y32.2529
G01 X0.8882 Y32.2407
G01 X0.8073 Y32.2204
G01 X0.7287 Y32.1923
G01 X0.6533 Y32.1566
G01 X0.5818 Y32.1137
G01 X0.5148 Y32.0641
G01 X0.4530 Y32.0080
G01 X0.3969 Y31.9462
G01 X0.3473 Y31.8792
G01 X0.3044 Y31.8077
G01 X0.2687 Y31.7323
G01 X0.2406 Y31.6537
G01 X0.2203 Y31.5728
G01 X0.2081 Y31.4903
G01 X0.2040 Y31.4070
G01 X0.2081 Y31.3237
G01 X0.2203 Y31.2412
G01 X0.2406 Y31.1603
G01 X0.2678 Y31.0840
G01 X0.3056 Y31.0042
G01 X0.3473 Y30.9348
G01 X0.3969 Y30.8678
G01 X0.4530 Y30.8060
G01 X0.5148 Y30.7499
G01 X0.5818 Y30.7003
G01 X0.6512 Y30.6586
G01 X0.7310 Y30.6208
G01 X0.8073 Y30.5936
G01 X0.8882 Y30.5733
G01 X0.9707 Y30.5611
G01 X1.0515 Y30.5571
G01 X1.1373 Y30.5611
G01 X1.2222 Y30.5739
G01 X1.3007 Y30.5936
G01 X1.3770 Y30.6208
G01 X1.4558 Y30.6580
G01 X1.5282 Y30.7017
G01 X1.5932 Y30.7499
G01 X1.6542 Y30.8051
G01 X1.7118 Y30.8687
G01 X1.7607 Y30.9348
G01 X1.7879 Y30.9799
G01 X21.1613 Y30.9799
G01 X21.1708 Y30.9536
G01 X21.2066 Y30.8782
G01 X21.2489 Y30.8078
G01 X21.2978 Y30.7417
G01 X21.3564 Y30.6773
G01 X21.4164 Y30.6229
G01 X21.4824 Y30.5739
G01 X21.5572 Y30.5293
G01 X21.6304 Y30.4947
G01 X21.7089 Y30.4666
G01 X21.7898 Y30.4463
G01 X21.8699 Y30.4344
G01 X21.9556 Y30.4300
G01 X22.0390 Y30.4341
G01 X22.1215 Y30.4463
G01 X22.2024 Y30.4666
G01 X22.2809 Y30.4947
G01 X22.3563 Y30.5304
G01 X22.4279 Y30.5733
G01 X22.4949 Y30.6229
G01 X22.5567 Y30.6790
G01 X22.6127 Y30.7408
G01 X22.6624 Y30.8078
G01 X22.7053 Y30.8793
G01 X22.7409 Y30.9547
G01 X22.7690 Y31.0333
G01 X22.7893 Y31.1142
G01 X22.8016 Y31.1967
G01 X22.8056 Y31.2788
G01 X22.8016 Y31.3633
G01 X22.7893 Y31.4458
G01 X22.7690 Y31.5267
G01 X22.7409 Y31.6053
G01 X22.7053 Y31.6807
G01 X22.6624 Y31.7522
G01 X22.6127 Y31.8192
G01 X22.5567 Y31.8810
G01 X22.4949 Y31.9371
G01 X22.4279 Y31.9867
G01 X22.3563 Y32.0296
G01 X22.2809 Y32.0653
G01 X22.2024 Y32.0934
G01 X22.1215 Y32.1137
G01 X22.0390 Y32.1259
G01 X21.9569 Y32.1300
G01 X21.8699 Y32.1256
G01 X21.7898 Y32.1137
G01 X21.7089 Y32.0934
G01 X21.6304 Y32.0653
G01 X21.5572 Y32.0307
G01 X21.4824 Y31.9861
G01 X21.4164 Y31.9371
G01 X21.3564 Y31.8827
G01 X21.2978 Y31.8183
G01 X21.2489 Y31.7522
G01 X21.2066 Y31.6818
G01 X21.1708 Y31.6064
G01 X21.1613 Y31.5801
G01 X1.8859 Y31.5801
G00 Z2.0000
G00 X1.8859 Y34.1201
G01 F60.00
G01 Z-0.1120
G01 F90.00
G01 X1.8674 Y34.1937
G01 X1.8393 Y34.2723
G01 X1.8036 Y34.3477
G01 X1.7607 Y34.4192
G01 X1.7111 Y34.4862
G01 X1.6550 Y34.5480
G01 X1.5932 Y34.6041
G01 X1.5262 Y34.6537
G01 X1.4547 Y34.6966
G01 X1.3793 Y34.7323
G01 X1.3007 Y34.7604
G01 X1.2198 Y34.7807
G01 X1.1373 Y34.7929
G01 X1.0540 Y34.7970
G01 X0.9707 Y34.7929
G01 X0.8882 Y34.7807
G01 X0.8073 Y34.7604
G01 X0.7287 Y34.7323
G01 X0.6533 Y34.6966
G01 X0.5818 Y34.6537
G01 X0.5148 Y34.6041
G01 X0.4530 Y34.5480
G01 X0.3969 Y34.4862
G01 X0.3473 Y34.4192
G01 X0.3044 Y34.3477
G01 X0.2687 Y34.2723
G01 X0.2406 Y34.1937
G01 X0.2203 Y34.1128
G01 X0.2081 Y34.0303
G01 X0.2040 Y33.9470
G01 X0.2081 Y33.8637
G01 X0.2203 Y33.7812
G01 X0.2406 Y33.7003
G01 X0.2678 Y33.6240
G01 X0.3056 Y33.5442
G01 X0.3473 Y33.4748
G01 X0.3969 Y33.4078
G01 X0.4530 Y33.3460
G01 X0.5148 Y33.2899
G01 X0.5818 Y33.2403
G01 X0.6512 Y33.1986
G01 X0.7310 Y33.1608
G01 X0.8073 Y33.1336
G01 X0.8882 Y33.1133
G01 X0.9707 Y33.1011
G01 X1.0515 Y33.0971
G01 X1.1373 Y33.1011
G01 X1.2222 Y33.1139
G01 X1.3007 Y33.1336
G01 X1.3770 Y33.1608
G01 X1.4558 Y33.1980
G01 X1.5282 Y33.2417
G01 X1.5932 Y33.2899
G01 X1.6542 Y33.3451
G01 X1.7118 Y33.4087
G01 X1.7607 Y33.4748
G01 X1.7879 Y33.5199
G01 X21.1613 Y33.5199
G01 X21.1708 Y33.4936
G01 X21.2066 Y33.4182
G01 X21.2489 Y33.3478
G01 X21.2978 Y33.2817
G01 X21.3564 Y33.2173
G01 X21.4164 Y33.1629
G01 X21.4824 Y33.1139
G01 X21.5572 Y33.0693
G01 X21.6304 Y33.0347
G01 X21.7089 Y33.0066
G01 X21.7922 Y32.9859
G01 X21.8723 Y32.9741
G01 X21.9556 Y32.9700
G01 X22.0390 Y32.9741
G01 X22.1215 Y32.9863
G01 X22.2024 Y33.0066
G01 X22.2809 Y33.0347
G01 X22.3563 Y33.0704
G01 X22.4279 Y33.1133
G01 X22.4949 Y33.1629
G01 X22.5567 Y33.2190
G01 X22.6127 Y33.2808
G01 X22.6624 Y33.3478
G01 X22.7053 Y33.4193
G01 X22.7409 Y33.4947
G01 X22.7690 Y33.5733
G01 X22.7893 Y33.6542
G01 X22.8016 Y33.7367
G01 X22.8056 Y33.8188
G01 X22.8016 Y33.9033
G01 X22.7893 Y33.9858
G01 X22.7690 Y34.0667
G01 X22.7409 Y34.1453
G01 X22.7053 Y34.2207
G01 X22.6624 Y34.2922
G01 X22.6127 Y34.3592
G01 X22.5567 Y34.4210
G01 X22.4949 Y34.4771
G01 X22.4279 Y34.5267
G01 X22.3563 Y34.5696
G01 X22.2809 Y34.6053
G01 X22.2024 Y34.6334
G01 X22.1215 Y34.6537
G01 X22.0390 Y34.6659
G01 X21.9569 Y34.6700
G01 X21.8699 Y34.6656
G01 X21.7898 Y34.6537
G01 X21.7089 Y34.6334
G01 X21.6304 Y34.6053
G01 X21.5572 Y34.5707
G01 X21.4824 Y34.5261
G01 X21.4164 Y34.4771
G01 X21.3564 Y34.4227
G01 X21.2978 Y34.3583
G01 X21.2489 Y34.2922
G01 X21.2066 Y34.2218
G01 X21.1708 Y34.1464
G01 X21.1613 Y34.1201
G01 X1.8859 Y34.1201
G00 Z2.0000
M05
G00 Z2.0000
G00 Z15.00


